Guiarthur-as/Robotic-Proprioception-System-UR10/data/app2_run_20260628_160701.csv
t,q0,q1,q2,q3,q4,q5,eig0,eig1,eig2,eig3,eig4,eig5,vcmd0,vcmd1,vcmd2,vcmd3,vcmd4,vcmd5,vreal0,vreal1,vreal2,vreal3,vreal4,vreal5
0.000,0.00000,-1.00000,0.60000,-1.40000,-1.57000,0.00000,0.01928,0.34936,0.46029,1.00768,2.64573,4.45745,0.00000,0.00000,0.00000,0.00000,0.00000,0.00000,0.00000,0.00000,0.00000,0.00000,0.00000,0.00000
0.051,0.00000,-1.00000,0.60000,-1.40000,-1.57000,0.00000,0.01928,0.34936,0.46029,1.00768,2.64573,4.45745,0.00000,0.00000,0.00000,0.00000,0.00000,0.00000,0.00000,0.00000,0.00000,0.00000,0.00000,0.00000
0.102,0.00000,-1.00000,0.60000,-1.40000,-1.57000,0.00000,0.01928,0.34936,0.46029,1.00768,2.64573,4.45745,0.00000,0.00000,0.00000,0.00000,0.00000,0.00000,0.00000,0.00000,0.00000,0.00000,0.00000,0.00000
0.153,0.00000,-1.00000,0.60000,-1.40000,-1.57000,0.00000,0.01928,0.34936,0.46029,1.00768,2.64573,4.45745,0.00000,0.00000,0.00000,0.00000,0.00000,0.00000,0.00000,0.00000,0.00000,0.00000,0.00000,0.00000
0.205,0.00000,-1.00000,0.60000,-1.40000,-1.57000,0.00000,0.01928,0.34936,0.46029,1.00768,2.64573,4.45745,0.00000,0.00000,0.00000,0.00000,0.00000,0.00000,0.00000,0.00000,0.00000,0.00000,0.00000,0.00000
0.255,0.00000,-1.00000,0.60000,-1.40000,-1.57000,0.00000,0.01928,0.34936,0.46029,1.00768,2.64573,4.45745,0.00000,0.00000,0.00000,0.00000,0.00000,0.00000,0.00000,0.00000,0.00000,0.00000,0.00000,0.00000
0.305,0.00000,-1.00000,0.60000,-1.40000,-1.57000,0.00000,0.01928,0.34936,0.46029,1.00768,2.64573,4.45745,0.00000,0.00000,0.00000,0.00000,0.00000,0.00000,0.00000,0.00000,0.00000,0.00000,0.00000,0.00000
0.357,0.00000,-1.00000,0.60000,-1.40000,-1.57000,0.00000,0.01928,0.34936,0.46029,1.00768,2.64573,4.45745,0.00000,0.00000,0.00000,0.00000,0.00000,0.00000,0.00000,0.00000,0.00000,0.00000,0.00000,0.00000
0.408,0.00000,-1.00000,0.60000,-1.40000,-1.57000,0.00000,0.01928,0.34936,0.46029,1.00768,2.64573,4.45745,0.00000,0.00000,0.00000,0.00000,0.00000,0.00000,0.00000,0.00000,0.00000,0.00000,0.00000,0.00000
0.459,0.00000,-1.00000,0.60000,-1.40000,-1.57000,0.00000,0.01928,0.34936,0.46029,1.00768,2.64573,4.45745,0.00000,0.00000,0.00000,0.00000,0.00000,0.00000,0.00000,0.00000,0.00000,0.00000,0.00000,0.00000
0.509,0.00000,-1.00000,0.60000,-1.40000,-1.57000,0.00000,0.01928,0.34936,0.46029,1.00768,2.64573,4.45745,0.00000,0.00000,0.00000,0.00000,0.00000,0.00000,0.00000,0.00000,0.00000,0.00000,0.00000,0.00000
0.560,0.00000,-1.00000,0.60000,-1.40000,-1.57000,0.00000,0.01928,0.34936,0.46029,1.00768,2.64573,4.45745,0.00000,0.00000,0.00000,0.00000,0.00000,0.00000,0.00000,0.00000,0.00000,0.00000,0.00000,0.00000
0.611,0.00000,-1.00000,0.60000,-1.40000,-1.57000,0.00000,0.01928,0.34936,0.46029,1.00768,2.64573,4.45745,0.00000,0.00000,0.00000,0.00000,0.00000,0.00000,0.00000,0.00000,0.00000,0.00000,0.00000,0.00000
0.662,0.00000,-1.00000,0.60000,-1.40000,-1.57000,0.00000,0.01928,0.34936,0.46029,1.00768,2.64573,4.45745,0.00000,0.00000,0.00000,0.00000,0.00000,0.00000,0.00000,0.00000,0.00000,0.00000,0.00000,0.00000
0.713,0.00000,-1.00000,0.60000,-1.40000,-1.57000,0.00000,0.01928,0.34936,0.46029,1.00768,2.64573,4.45745,0.00000,0.00000,0.00000,0.00000,0.00000,0.00000,0.00000,0.00000,0.00000,0.00000,0.00000,0.00000
0.764,0.00000,-1.00000,0.60000,-1.40000,-1.57000,0.00000,0.01928,0.34936,0.46029,1.00768,2.64573,4.45745,0.00000,0.00000,0.00000,0.00000,0.00000,0.00000,0.00000,0.00000,0.00000,0.00000,0.00000,0.00000
0.815,0.00000,-1.00000,0.60000,-1.40000,-1.57000,0.00000,0.01928,0.34936,0.46029,1.00768,2.64573,4.45745,0.00000,0.00000,0.00000,0.00000,0.00000,0.00000,0.00000,0.00000,0.00000,0.00000,0.00000,0.00000
0.866,0.00000,-1.00000,0.60000,-1.40000,-1.57000,0.00000,0.01928,0.34936,0.46029,1.00768,2.64573,4.45745,0.00000,0.00000,0.00000,0.00000,0.00000,0.00000,0.00000,0.00000,0.00000,0.00000,0.00000,0.00000
0.917,0.00000,-1.00000,0.60000,-1.40000,-1.57000,0.00000,0.01928,0.34936,0.46029,1.00768,2.64573,4.45745,0.00000,0.00000,0.00000,0.00000,0.00000,0.00000,0.00000,0.00000,0.00000,0.00000,0.00000,0.00000
0.968,0.00000,-1.00000,0.60000,-1.40000,-1.57000,0.00000,0.01928,0.34936,0.46029,1.00768,2.64573,4.45745,0.00000,0.00000,0.00000,0.00000,0.00000,0.00000,0.00000,0.00000,0.00000,0.00000,0.00000,0.00000
1.019,0.00000,-1.00000,0.60000,-1.40000,-1.57000,0.00000,0.01928,0.34936,0.46029,1.00768,2.64573,4.45745,0.00000,0.00000,0.00000,0.00000,0.00000,0.00000,0.00000,0.00000,0.00000,0.00000,0.00000,0.00000
1.070,0.00000,-1.00000,0.60000,-1.40000,-1.57000,0.00000,0.01928,0.34936,0.46029,1.00768,2.64573,4.45745,0.00000,0.00000,0.00000,0.00000,0.00000,0.00000,0.00000,0.00000,0.00000,0.00000,0.00000,0.00000
1.121,0.00000,-1.00000,0.60000,-1.40000,-1.57000,0.00000,0.01928,0.34936,0.46029,1.00768,2.64573,4.45745,0.00000,0.00000,0.00000,0.00000,0.00000,0.00000,0.00000,0.00000,0.00000,0.00000,0.00000,0.00000
1.172,0.00000,-1.00000,0.60000,-1.40000,-1.57000,0.00000,0.01928,0.34936,0.46029,1.00768,2.64573,4.45745,0.00000,0.00000,0.00000,0.00000,0.00000,0.00000,0.00000,0.00000,0.00000,0.00000,0.00000,0.00000
1.224,0.00000,-1.00000,0.60000,-1.40000,-1.57000,0.00000,0.01928,0.34936,0.46029,1.00768,2.64573,4.45745,0.00000,0.00000,0.00000,0.00000,0.00000,0.00000,0.00000,0.00000,0.00000,0.00000,0.00000,0.00000
1.275,0.00000,-1.00000,0.60000,-1.40000,-1.57000,0.00000,0.01928,0.34936,0.46029,1.00768,2.64573,4.45745,0.00000,0.00000,0.00000,0.00000,0.00000,0.00000,0.00000,0.00000,0.00000,0.00000,0.00000,0.00000
1.326,0.00000,-1.00000,0.60000,-1.40000,-1.57000,0.00000,0.01928,0.34936,0.46029,1.00768,2.64573,4.45745,0.00000,0.00000,0.00000,0.00000,0.00000,0.00000,0.00000,0.00000,0.00000,0.00000,0.00000,0.00000
1.377,0.00000,-1.00000,0.60000,-1.40000,-1.57000,0.00000,0.01928,0.34936,0.46029,1.00768,2.64573,4.45745,0.00000,0.00000,0.00000,0.00000,0.00000,0.00000,0.00000,0.00000,0.00000,0.00000,0.00000,0.00000
1.428,0.00000,-1.00000,0.60000,-1.40000,-1.57000,0.00000,0.01928,0.34936,0.46029,1.00768,2.64573,4.45745,0.00000,0.00000,0.00000,0.00000,0.00000,0.00000,0.00000,0.00000,0.00000,0.00000,0.00000,0.00000
1.478,0.00000,-1.00000,0.60000,-1.40000,-1.57000,0.00000,0.01928,0.34936,0.46029,1.00768,2.64573,4.45745,0.00000,0.00000,0.00000,0.00000,0.00000,0.00000,0.00000,0.00000,0.00000,0.00000,0.00000,0.00000
1.530,0.00000,-1.00000,0.60000,-1.40000,-1.57000,0.00000,0.01928,0.34936,0.46029,1.00768,2.64573,4.45745,0.00000,0.00000,0.00000,0.00000,0.00000,0.00000,0.00000,0.00000,0.00000,0.00000,0.00000,0.00000
1.581,0.00000,-1.00000,0.60000,-1.40000,-1.57000,0.00000,0.01928,0.34936,0.46029,1.00768,2.64573,4.45745,0.00000,0.00000,0.00000,0.00000,0.00000,0.00000,0.00000,0.00000,0.00000,0.00000,0.00000,0.00000
1.632,0.00000,-1.00000,0.60000,-1.40000,-1.57000,0.00000,0.01928,0.34936,0.46029,1.00768,2.64573,4.45745,0.00000,0.00000,-0.05000,0.00000,0.00000,0.00000,-0.02192,-0.00386,-0.03087,0.00036,-0.00580,-0.00016
1.682,0.00001,-0.99991,0.60004,-1.40011,-1.57000,0.00001,0.01928,0.34940,0.46028,1.00768,2.64584,4.45748,0.00000,0.00000,-0.05000,0.00000,0.00000,0.00000,-0.02192,-0.00386,-0.03087,0.00036,-0.00580,-0.00016
1.733,0.00007,-0.99954,0.60022,-1.40058,-1.57002,0.00007,0.01929,0.34956,0.46025,1.00769,2.64629,4.45760,0.00000,0.00000,-0.05000,0.00000,0.00000,0.00000,-0.02191,-0.00386,-0.03089,0.00036,-0.00579,-0.00016
1.784,0.00017,-0.99887,0.60052,-1.40141,-1.57005,0.00016,0.01931,0.34985,0.46020,1.00769,2.64708,4.45782,0.00000,0.00000,-0.05000,0.00000,0.00000,0.00000,-0.02191,-0.00386,-0.03093,0.00036,-0.00579,-0.00016
1.835,0.00030,-0.99792,0.60095,-1.40258,-1.57010,0.00030,0.01933,0.35026,0.46012,1.00769,2.64822,4.45813,0.00000,0.00000,-0.05000,0.00000,0.00000,0.00000,-0.02190,-0.00386,-0.03098,0.00036,-0.00578,-0.00016
1.886,0.00050,-0.99660,0.60154,-1.40422,-1.57016,0.00049,0.01937,0.35083,0.46002,1.00769,2.64979,4.45857,0.00000,0.00000,-0.05000,0.00000,0.00000,0.00000,-0.02188,-0.00386,-0.03105,0.00036,-0.00577,-0.00016
1.936,0.00066,-0.99550,0.60204,-1.40559,-1.57021,0.00065,0.01940,0.35131,0.45993,1.00769,2.65111,4.45893,0.00000,0.00000,-0.05000,0.00000,0.00000,0.00000,-0.02187,-0.00385,-0.03111,0.00036,-0.00576,-0.00016
1.987,0.00081,-0.99440,0.60254,-1.40696,-1.57026,0.00081,0.01943,0.35178,0.45985,1.00769,2.65242,4.45929,0.00000,0.00000,-0.05000,0.00000,0.00000,0.00000,-0.02186,-0.00385,-0.03117,0.00036,-0.00575,-0.00016
2.038,0.00097,-0.99330,0.60304,-1.40833,-1.57031,0.00097,0.01946,0.35225,0.45976,1.00769,2.65373,4.45965,0.00000,0.00000,-0.05000,0.00000,0.00000,0.00000,-0.02185,-0.00385,-0.03124,0.00036,-0.00574,-0.00016
2.089,0.00116,-0.99197,0.60363,-1.40998,-1.57037,0.00115,0.01950,0.35282,0.45966,1.00769,2.65531,4.46009,0.00000,0.00000,-0.05000,0.00000,0.00000,0.00000,-0.02183,-0.00385,-0.03131,0.00036,-0.00573,-0.00016
2.140,0.00132,-0.99086,0.60413,-1.41135,-1.57042,0.00131,0.01953,0.35329,0.45957,1.00769,2.65663,4.46045,0.00000,0.00000,-0.05000,0.00000,0.00000,0.00000,-0.02182,-0.00385,-0.03137,0.00036,-0.00572,-0.00016
2.191,0.00148,-0.98975,0.60463,-1.41273,-1.57047,0.00147,0.01956,0.35377,0.45949,1.00769,2.65795,4.46082,0.00000,0.00000,-0.05000,0.00000,0.00000,0.00000,-0.02181,-0.00384,-0.03143,0.00036,-0.00571,-0.00016
2.242,0.00167,-0.98842,0.60522,-1.41438,-1.57054,0.00165,0.01960,0.35433,0.45939,1.00769,2.65953,4.46126,0.00000,0.00000,-0.05000,0.00000,0.00000,0.00000,-0.02179,-0.00384,-0.03150,0.00036,-0.00569,-0.00016
2.292,0.00182,-0.98731,0.60571,-1.41576,-1.57059,0.00181,0.01963,0.35480,0.45930,1.00769,2.66085,4.46162,0.00000,0.00000,-0.05000,0.00000,0.00000,0.00000,-0.02178,-0.00384,-0.03156,0.00036,-0.00568,-0.00016
2.343,0.00201,-0.98597,0.60630,-1.41742,-1.57065,0.00200,0.01967,0.35536,0.45920,1.00769,2.66243,4.46206,0.00000,0.00000,-0.05000,0.00000,0.00000,0.00000,-0.02177,-0.00384,-0.03163,0.00036,-0.00567,-0.00016
2.394,0.00217,-0.98485,0.60680,-1.41880,-1.57070,0.00215,0.01970,0.35583,0.45912,1.00770,2.66375,4.46243,0.00000,0.00000,-0.05000,0.00000,0.00000,0.00000,-0.02175,-0.00383,-0.03169,0.00036,-0.00566,-0.00016
2.444,0.00232,-0.98373,0.60729,-1.42019,-1.57075,0.00230,0.01973,0.35630,0.45904,1.00770,2.66508,4.46280,0.00000,0.00000,-0.05000,0.00000,0.00000,0.00000,-0.02174,-0.00383,-0.03176,0.00036,-0.00565,-0.00016
2.496,0.00251,-0.98238,0.60788,-1.42185,-1.57080,0.00249,0.01977,0.35686,0.45894,1.00770,2.66667,4.46324,0.00000,0.00000,-0.05000,0.00000,0.00000,0.00000,-0.02172,-0.00383,-0.03183,0.00036,-0.00564,-0.00016
2.547,0.00266,-0.98126,0.60837,-1.42324,-1.57085,0.00264,0.01980,0.35732,0.45885,1.00770,2.66799,4.46361,0.00000,0.00000,-0.05000,0.00000,0.00000,0.00000,-0.02171,-0.00383,-0.03189,0.00036,-0.00563,-0.00016
2.598,0.00282,-0.98013,0.60886,-1.42463,-1.57090,0.00280,0.01983,0.35779,0.45877,1.00770,2.66931,4.46398,0.00000,0.00000,-0.05000,0.00000,0.00000,0.00000,-0.02170,-0.00382,-0.03195,0.00036,-0.00562,-0.00016
2.649,0.00297,-0.97901,0.60935,-1.42603,-1.57095,0.00295,0.01986,0.35825,0.45869,1.00770,2.67064,4.46435,0.00000,0.00000,-0.05000,0.00000,0.00000,0.00000,-0.02168,-0.00382,-0.03201,0.00036,-0.00561,-0.00016
2.701,0.00312,-0.97788,0.60984,-1.42742,-1.57100,0.00310,0.01989,0.35872,0.45861,1.00770,2.67197,4.46472,0.00000,0.00000,-0.05000,0.00000,0.00000,0.00000,-0.02167,-0.00382,-0.03207,0.00036,-0.00560,-0.00016
2.752,0.00328,-0.97675,0.61033,-1.42882,-1.57105,0.00325,0.01992,0.35918,0.45852,1.00770,2.67329,4.46509,0.00000,0.00000,-0.05000,0.00000,0.00000,0.00000,-0.02165,-0.00382,-0.03213,0.00036,-0.00559,-0.00016
2.802,0.00346,-0.97539,0.61091,-1.43049,-1.57111,0.00344,0.01996,0.35973,0.45843,1.00770,2.67489,4.46553,0.00000,0.00000,-0.05000,0.00000,0.00000,0.00000,-0.02164,-0.00381,-0.03220,0.00036,-0.00558,-0.00016
2.853,0.00361,-0.97425,0.61140,-1.43189,-1.57116,0.00359,0.01999,0.36020,0.45835,1.00770,2.67622,4.46591,0.00000,0.00000,-0.05000,0.00000,0.00000,0.00000,-0.02162,-0.00381,-0.03226,0.00036,-0.00557,-0.00016
2.904,0.00373,-0.97334,0.61179,-1.43301,-1.57120,0.00371,0.02002,0.36056,0.45828,1.00770,2.67728,4.46620,0.00000,0.00000,-0.05000,0.00000,0.00000,0.00000,-0.02161,-0.00381,-0.03231,0.00036,-0.00556,-0.00016
2.955,0.00391,-0.97197,0.61237,-1.43469,-1.57125,0.00389,0.02005,0.36112,0.45819,1.00770,2.67888,4.46665,0.00000,0.00000,-0.05000,0.00000,0.00000,0.00000,-0.02159,-0.00381,-0.03239,0.00036,-0.00555,-0.00016
3.006,0.00404,-0.97106,0.61276,-1.43582,-1.57129,0.00401,0.02008,0.36148,0.45812,1.00770,2.67994,4.46695,0.00000,0.00000,-0.05000,0.00000,0.00000,0.00000,-0.02158,-0.00380,-0.03244,0.00036,-0.00554,-0.00016
3.056,0.00422,-0.96969,0.61334,-1.43750,-1.57135,0.00419,0.02011,0.36203,0.45803,1.00770,2.68154,4.46740,0.00000,0.00000,-0.05000,0.00000,0.00000,0.00000,-0.02156,-0.00380,-0.03251,0.00036,-0.00552,-0.00016
3.108,0.00437,-0.96854,0.61382,-1.43891,-1.57140,0.00434,0.02014,0.36249,0.45795,1.00771,2.68288,4.46778,0.00000,0.00000,-0.05000,0.00000,0.00000,0.00000,-0.02155,-0.00380,-0.03257,0.00036,-0.00551,-0.00016
3.158,0.00455,-0.96717,0.61440,-1.44060,-1.57146,0.00452,0.02018,0.36303,0.45785,1.00771,2.68448,4.46823,0.00000,0.00000,-0.05000,0.00000,0.00000,0.00000,-0.02153,-0.00380,-0.03264,0.00036,-0.00550,-0.00016
3.209,0.00470,-0.96602,0.61488,-1.44201,-1.57150,0.00467,0.02021,0.36349,0.45778,1.00771,2.68581,4.46860,0.00000,0.00000,-0.05000,0.00000,0.00000,0.00000,-0.02151,-0.00379,-0.03270,0.00036,-0.00549,-0.00016
3.260,0.00485,-0.96487,0.61536,-1.44342,-1.57155,0.00482,0.02024,0.36394,0.45770,1.00771,2.68715,4.46898,0.00000,0.00000,-0.05000,0.00000,0.00000,0.00000,-0.02149,-0.00379,-0.03276,0.00036,-0.00548,-0.00016
3.310,0.00499,-0.96371,0.61584,-1.44483,-1.57160,0.00497,0.02027,0.36440,0.45762,1.00771,2.68848,4.46936,0.00000,0.00000,-0.05000,0.00000,0.00000,0.00000,-0.02148,-0.00379,-0.03282,0.00036,-0.00547,-0.00016
3.360,0.00517,-0.96232,0.61641,-1.44653,-1.57165,0.00514,0.02031,0.36494,0.45753,1.00771,2.69008,4.46981,0.00000,0.00000,-0.05000,0.00000,0.00000,0.00000,-0.02146,-0.00378,-0.03290,0.00036,-0.00546,-0.00016
3.410,0.00535,-0.96093,0.61698,-1.44823,-1.57171,0.00532,0.02035,0.36548,0.45744,1.00771,2.69169,4.47027,0.00000,0.00000,-0.05000,0.00000,0.00000,0.00000,-0.02144,-0.00378,-0.03297,0.00036,-0.00544,-0.00016
3.462,0.00550,-0.95978,0.61746,-1.44965,-1.57176,0.00547,0.02038,0.36593,0.45736,1.00771,2.69303,4.47065,0.00000,0.00000,-0.05000,0.00000,0.00000,0.00000,-0.02142,-0.00378,-0.03303,0.00036,-0.00543,-0.00016
3.513,0.00564,-0.95861,0.61794,-1.45107,-1.57180,0.00561,0.02041,0.36638,0.45729,1.00771,2.69437,4.47103,0.00000,0.00000,-0.05000,0.00000,0.00000,0.00000,-0.02141,-0.00377,-0.03309,0.00036,-0.00542,-0.00016
3.564,0.00579,-0.95745,0.61841,-1.45249,-1.57185,0.00576,0.02044,0.36683,0.45721,1.00771,2.69570,4.47141,0.00000,0.00000,-0.05000,0.00000,0.00000,0.00000,-0.02139,-0.00377,-0.03315,0.00036,-0.00541,-0.00016
3.615,0.00591,-0.95652,0.61879,-1.45363,-1.57189,0.00588,0.02046,0.36718,0.45715,1.00771,2.69678,4.47171,0.00000,0.00000,-0.05000,0.00000,0.00000,0.00000,-0.02137,-0.00377,-0.03320,0.00036,-0.00540,-0.00016
3.666,0.00608,-0.95512,0.61936,-1.45534,-1.57194,0.00605,0.02050,0.36772,0.45706,1.00771,2.69838,4.47217,0.00000,0.00000,-0.05000,0.00000,0.00000,0.00000,-0.02135,-0.00377,-0.03328,0.00036,-0.00539,-0.00016
3.717,0.00623,-0.95395,0.61984,-1.45677,-1.57199,0.00620,0.02053,0.36816,0.45699,1.00771,2.69973,4.47255,0.00000,0.00000,-0.05000,0.00000,0.00000,0.00000,-0.02134,-0.00376,-0.03334,0.00036,-0.00538,-0.00016
3.769,0.00637,-0.95278,0.62031,-1.45820,-1.57204,0.00634,0.02056,0.36861,0.45692,1.00771,2.70107,4.47294,0.00000,0.00000,-0.05000,0.00000,0.00000,0.00000,-0.02132,-0.00376,-0.03340,0.00036,-0.00537,-0.00016
3.820,0.00652,-0.95160,0.62078,-1.45963,-1.57208,0.00649,0.02059,0.36905,0.45684,1.00772,2.70241,4.47332,0.00000,0.00000,-0.05000,0.00000,0.00000,0.00000,-0.02130,-0.00376,-0.03346,0.00036,-0.00536,-0.00016
3.870,0.00666,-0.95043,0.62125,-1.46106,-1.57213,0.00663,0.02062,0.36949,0.45677,1.00772,2.70375,4.47370,0.00000,0.00000,-0.05000,0.00000,0.00000,0.00000,-0.02128,-0.00375,-0.03352,0.00036,-0.00535,-0.00016
3.921,0.00681,-0.94925,0.62173,-1.46249,-1.57217,0.00678,0.02065,0.36993,0.45670,1.00772,2.70509,4.47409,0.00000,0.00000,-0.05000,0.00000,0.00000,0.00000,-0.02126,-0.00375,-0.03358,0.00036,-0.00534,-0.00016
3.972,0.00698,-0.94784,0.62229,-1.46422,-1.57223,0.00695,0.02069,0.37046,0.45661,1.00772,2.70670,4.47455,0.00000,0.00000,-0.05000,0.00000,0.00000,0.00000,-0.02124,-0.00375,-0.03365,0.00036,-0.00532,-0.00016
4.022,0.00710,-0.94689,0.62266,-1.46536,-1.57226,0.00706,0.02071,0.37081,0.45656,1.00772,2.70778,4.47486,0.00000,0.00000,-0.05000,0.00000,0.00000,0.00000,-0.02123,-0.00374,-0.03370,0.00036,-0.00531,-0.00016
4.073,0.00727,-0.94547,0.62322,-1.46709,-1.57232,0.00723,0.02075,0.37133,0.45647,1.00772,2.70939,4.47532,0.00000,0.00000,-0.05000,0.00000,0.00000,0.00000,-0.02120,-0.00374,-0.03378,0.00036,-0.00530,-0.00016
4.125,0.00741,-0.94429,0.62369,-1.46853,-1.57236,0.00738,0.02078,0.37177,0.45640,1.00772,2.71074,4.47571,0.00000,0.00000,-0.05000,0.00000,0.00000,0.00000,-0.02119,-0.00374,-0.03384,0.00036,-0.00529,-0.00016
4.176,0.00755,-0.94310,0.62416,-1.46997,-1.57241,0.00752,0.02081,0.37220,0.45633,1.00772,2.71208,4.47610,0.00000,0.00000,-0.05000,0.00000,0.00000,0.00000,-0.02117,-0.00373,-0.03390,0.00036,-0.00528,-0.00016
4.227,0.00769,-0.94191,0.62462,-1.47141,-1.57245,0.00766,0.02084,0.37264,0.45626,1.00772,2.71343,4.47648,0.00000,0.00000,-0.05000,0.00000,0.00000,0.00000,-0.02115,-0.00373,-0.03396,0.00036,-0.00527,-0.00016
4.277,0.00786,-0.94048,0.62517,-1.47314,-1.57251,0.00783,0.02087,0.37316,0.45618,1.00772,2.71504,4.47695,0.00000,0.00000,-0.05000,0.00000,0.00000,0.00000,-0.02112,-0.00373,-0.03403,0.00036,-0.00525,-0.00016
4.327,0.00800,-0.93928,0.62564,-1.47459,-1.57255,0.00797,0.02090,0.37359,0.45612,1.00772,2.71639,4.47734,0.00000,0.00000,-0.05000,0.00000,0.00000,0.00000,-0.02110,-0.00372,-0.03409,0.00036,-0.00524,-0.00016
4.378,0.00812,-0.93833,0.62601,-1.47575,-1.57258,0.00808,0.02093,0.37393,0.45606,1.00772,2.71747,4.47765,0.00000,0.00000,-0.05000,0.00000,0.00000,0.00000,-0.02109,-0.00372,-0.03414,0.00036,-0.00523,-0.00016
4.429,0.00826,-0.93713,0.62647,-1.47720,-1.57263,0.00822,0.02096,0.37436,0.45600,1.00772,2.71881,4.47804,0.00000,0.00000,-0.05000,0.00000,0.00000,0.00000,-0.02107,-0.00372,-0.03420,0.00036,-0.00522,-0.00016
4.479,0.00840,-0.93593,0.62693,-1.47865,-1.57267,0.00836,0.02099,0.37479,0.45593,1.00772,2.72016,4.47843,0.00000,0.00000,-0.05000,0.00000,0.00000,0.00000,-0.02105,-0.00371,-0.03426,0.00036,-0.00521,-0.00016
4.530,0.00854,-0.93473,0.62739,-1.48010,-1.57272,0.00850,0.02102,0.37522,0.45587,1.00772,2.72151,4.47883,0.00000,0.00000,-0.05000,0.00000,0.00000,0.00000,-0.02103,-0.00371,-0.03433,0.00036,-0.00520,-0.00016
4.581,0.00868,-0.93353,0.62785,-1.48155,-1.57276,0.00864,0.02105,0.37564,0.45580,1.00773,2.72286,4.47922,0.00000,0.00000,-0.05000,0.00000,0.00000,0.00000,-0.02101,-0.00371,-0.03439,0.00036,-0.00519,-0.00016
4.631,0.00882,-0.93232,0.62830,-1.48301,-1.57280,0.00878,0.02108,0.37607,0.45574,1.00773,2.72420,4.47961,0.00000,0.00000,-0.05000,0.00000,0.00000,0.00000,-0.02099,-0.00370,-0.03445,0.00036,-0.00518,-0.00016
4.682,0.00895,-0.93111,0.62876,-1.48446,-1.57285,0.00892,0.02111,0.37649,0.45567,1.00773,2.72555,4.48000,0.00000,0.00000,-0.05000,0.00000,0.00000,0.00000,-0.02097,-0.00370,-0.03451,0.00036,-0.00517,-0.00016
4.734,0.00909,-0.92991,0.62922,-1.48592,-1.57289,0.00906,0.02114,0.37691,0.45561,1.00773,2.72690,4.48040,0.00000,0.00000,-0.05000,0.00000,0.00000,0.00000,-0.02094,-0.00369,-0.03457,0.00036,-0.00516,-0.00016
4.785,0.00923,-0.92870,0.62968,-1.48738,-1.57293,0.00920,0.02117,0.37733,0.45555,1.00773,2.72825,4.48079,0.00000,0.00000,-0.05000,0.00000,0.00000,0.00000,-0.02092,-0.00369,-0.03463,0.00036,-0.00514,-0.00016
4.836,0.00937,-0.92748,0.63013,-1.48885,-1.57298,0.00934,0.02120,0.37775,0.45549,1.00773,2.72960,4.48118,0.00000,0.00000,-0.05000,0.00000,0.00000,0.00000,-0.02090,-0.00369,-0.03469,0.00036,-0.00513,-0.00016
4.887,0.00950,-0.92627,0.63059,-1.49031,-1.57302,0.00947,0.02123,0.37817,0.45543,1.00773,2.73095,4.48158,0.00000,0.00000,-0.05000,0.00000,0.00000,0.00000,-0.02088,-0.00368,-0.03475,0.00036,-0.00512,-0.00016
4.938,0.00967,-0.92481,0.63113,-1.49206,-1.57307,0.00964,0.02126,0.37867,0.45536,1.00773,2.73257,4.48205,0.00000,0.00000,-0.05000,0.00000,0.00000,0.00000,-0.02085,-0.00368,-0.03483,0.00036,-0.00511,-0.00016
4.989,0.00983,-0.92335,0.63167,-1.49382,-1.57312,0.00980,0.02130,0.37917,0.45529,1.00773,2.73419,4.48253,0.00000,0.00000,-0.05000,0.00000,0.00000,0.00000,-0.02083,-0.00367,-0.03490,0.00036,-0.00509,-0.00015
5.039,0.00997,-0.92212,0.63212,-1.49529,-1.57317,0.00994,0.02133,0.37958,0.45523,1.00773,2.73554,4.48293,0.00000,0.00000,-0.05000,0.00000,0.00000,0.00000,-0.02081,-0.00367,-0.03496,0.00036,-0.00508,-0.00015
5.090,0.01010,-0.92090,0.63258,-1.49676,-1.57321,0.01007,0.02136,0.37999,0.45517,1.00773,2.73688,4.48332,0.00000,0.00000,-0.05000,0.00000,0.00000,0.00000,-0.02078,-0.00367,-0.03502,0.00036,-0.00507,-0.00015
5.142,0.01024,-0.91968,0.63303,-1.49824,-1.57325,0.01021,0.02138,0.38040,0.45511,1.00773,2.73823,4.48372,0.00000,0.00000,-0.05000,0.00000,0.00000,0.00000,-0.02076,-0.00366,-0.03508,0.00036,-0.00506,-0.00015
5.193,0.01040,-0.91820,0.63356,-1.50000,-1.57330,0.01037,0.02142,0.38089,0.45505,1.00773,2.73985,4.48420,0.00000,0.00000,-0.05000,0.00000,0.00000,0.00000,-0.02073,-0.00366,-0.03516,0.00036,-0.00505,-0.00015
5.243,0.01053,-0.91697,0.63401,-1.50148,-1.57334,0.01050,0.02145,0.38130,0.45499,1.00773,2.74120,4.48460,0.00000,0.00000,-0.05000,0.00000,0.00000,0.00000,-0.02071,-0.00365,-0.03522,0.00036,-0.00503,-0.00015
5.295,0.01067,-0.91574,0.63446,-1.50295,-1.57338,0.01064,0.02148,0.38170,0.45494,1.00773,2.74255,4.48500,0.00000,0.00000,-0.05000,0.00000,0.00000,0.00000,-0.02069,-0.00365,-0.03528,0.00036,-0.00502,-0.00015
5.345,0.01080,-0.91451,0.63490,-1.50443,-1.57343,0.01077,0.02151,0.38211,0.45488,1.00774,2.74390,4.48540,0.05000,0.00000,-0.05000,0.00000,0.00000,0.00000,0.00021,-0.00878,-0.01467,0.00088,-0.01207,-0.00037
5.395,0.01098,-0.91317,0.63551,-1.50610,-1.57348,0.01096,0.02155,0.38255,0.45482,1.00774,2.74539,4.48579,0.05000,0.00000,-0.05000,0.00000,0.00000,0.00000,0.00018,-0.00879,-0.01477,0.00088,-0.01207,-0.00037
5.446,0.01121,-0.91255,0.63629,-1.50718,-1.57355,0.01118,0.02160,0.38281,0.45474,1.00774,2.74617,4.48581,0.05000,0.00000,-0.05000,0.00000,0.00000,0.00000,0.00017,-0.00880,-0.01483,0.00088,-0.01206,-0.00037
5.497,0.01157,-0.91242,0.63759,-1.50809,-1.57366,0.01154,0.02168,0.38296,0.45462,1.00774,2.74654,4.48544,0.05000,0.00000,-0.05000,0.00000,0.00000,0.00000,0.00017,-0.00882,-0.01489,0.00089,-0.01206,-0.00037
5.549,0.01198,-0.91262,0.63908,-1.50880,-1.57379,0.01195,0.02178,0.38304,0.45449,1.00774,2.74661,4.48486,0.05000,0.00000,-0.05000,0.00000,0.00000,0.00000,0.00018,-0.00884,-0.01493,0.00089,-0.01207,-0.00038
5.600,0.01232,-0.91279,0.64033,-1.50940,-1.57389,0.01230,0.02186,0.38310,0.45438,1.00774,2.74666,4.48437,0.05000,0.00000,-0.05000,0.00000,0.00000,0.00000,0.00020,-0.00886,-0.01497,0.00089,-0.01207,-0.00038
5.651,0.01267,-0.91296,0.64159,-1.51000,-1.57400,0.01264,0.02194,0.38317,0.45427,1.00775,2.74672,4.48388,0.05000,0.00000,-0.05000,0.00000,0.00000,0.00000,0.00021,-0.00887,-0.01500,0.00090,-0.01207,-0.00038
5.701,0.01308,-0.91316,0.64309,-1.51072,-1.57412,0.01306,0.02204,0.38324,0.45413,1.00775,2.74679,4.48330,0.05000,0.00000,-0.05000,0.00000,0.00000,0.00000,0.00022,-0.00889,-0.01505,0.00090,-0.01208,-0.00038
5.752,0.01343,-0.91333,0.64435,-1.51132,-1.57422,0.01340,0.02212,0.38331,0.45402,1.00775,2.74684,4.48281,0.05000,0.00000,-0.05000,0.00000,0.00000,0.00000,0.00024,-0.00891,-0.01509,0.00091,-0.01208,-0.00038
5.803,0.01377,-0.91350,0.64561,-1.51193,-1.57433,0.01375,0.02220,0.38337,0.45391,1.00775,2.74689,4.48232,0.05000,0.00000,-0.05000,0.00000,0.00000,0.00000,0.00025,-0.00893,-0.01512,0.00091,-0.01208,-0.00038
5.854,0.01412,-0.91367,0.64687,-1.51254,-1.57443,0.01410,0.02229,0.38343,0.45379,1.00776,2.74695,4.48183,0.05000,0.00000,-0.05000,0.00000,0.00000,0.00000,0.00026,-0.00894,-0.01516,0.00091,-0.01209,-0.00039
5.904,0.01446,-0.91384,0.64813,-1.51315,-1.57454,0.01445,0.02237,0.38349,0.45368,1.00776,2.74700,4.48134,0.05000,0.00000,-0.05000,0.00000,0.00000,0.00000,0.00027,-0.00896,-0.01520,0.00092,-0.01209,-0.00039
5.954,0.01474,-0.91397,0.64914,-1.51364,-1.57462,0.01473,0.02243,0.38354,0.45359,1.00776,2.74704,4.48094,0.05000,0.00000,-0.05000,0.00000,0.00000,0.00000,0.00028,-0.00897,-0.01523,0.00092,-0.01209,-0.00039
6.006,0.01516,-0.91417,0.65066,-1.51437,-1.57474,0.01515,0.02253,0.38362,0.45345,1.00776,2.74711,4.48035,0.05000,0.00000,-0.05000,0.00000,0.00000,0.00000,0.00030,-0.00899,-0.01527,0.00093,-0.01209,-0.00039
6.056,0.01544,-0.91430,0.65167,-1.51487,-1.57483,0.01543,0.02260,0.38366,0.45336,1.00776,2.74715,4.47995,0.05000,0.00000,-0.05000,0.00000,0.00000,0.00000,0.00031,-0.00901,-0.01530,0.00093,-0.01210,-0.00039
6.106,0.01579,-0.91447,0.65294,-1.51548,-1.57493,0.01578,0.02268,0.38373,0.45325,1.00777,2.74720,4.47945,0.05000,0.00000,-0.05000,0.00000,0.00000,0.00000,0.00032,-0.00902,-0.01534,0.00093,-0.01210,-0.00039
6.156,0.01614,-0.91464,0.65421,-1.51610,-1.57503,0.01613,0.02277,0.38379,0.45313,1.00777,2.74725,4.47896,0.05000,0.00000,-0.05000,0.00000,0.00000,0.00000,0.00034,-0.00904,-0.01537,0.00094,-0.01210,-0.00039
6.207,0.01649,-0.91480,0.65549,-1.51672,-1.57514,0.01648,0.02285,0.38385,0.45302,1.00777,2.74730,4.47846,0.05000,0.00000,-0.05000,0.00000,0.00000,0.00000,0.00035,-0.00906,-0.01541,0.00094,-0.01210,-0.00040
6.258,0.01691,-0.91500,0.65702,-1.51747,-1.57526,0.01691,0.02295,0.38392,0.45288,1.00777,2.74736,4.47786,0.05000,0.00000,-0.05000,0.00000,0.00000,0.00000,0.00037,-0.00908,-0.01546,0.00094,-0.01211,-0.00040
6.309,0.01712,-0.91510,0.65778,-1.51785,-1.57532,0.01712,0.02300,0.38396,0.45281,1.00778,2.74739,4.47756,0.05000,0.00000,-0.05000,0.00000,0.00000,0.00000,0.00037,-0.00909,-0.01548,0.00095,-0.01211,-0.00040
6.360,0.01748,-0.91527,0.65906,-1.51847,-1.57543,0.01747,0.02309,0.38402,0.45269,1.00778,2.74744,4.47706,0.05000,0.00000,-0.05000,0.00000,0.00000,0.00000,0.00039,-0.00911,-0.01552,0.00095,-0.01211,-0.00040
6.410,0.01783,-0.91543,0.66034,-1.51910,-1.57553,0.01783,0.02317,0.38407,0.45258,1.00778,2.74749,4.47655,0.05000,0.00000,-0.05000,0.00000,0.00000,0.00000,0.00040,-0.00912,-0.01556,0.00096,-0.01212,-0.00040
6.461,0.01811,-0.91556,0.66137,-1.51961,-1.57561,0.01811,0.02324,0.38412,0.45248,1.00778,2.74752,4.47615,0.05000,0.00000,-0.05000,0.00000,0.00000,0.00000,0.00041,-0.00914,-0.01559,0.00096,-0.01212,-0.00040
6.512,0.01847,-0.91573,0.66265,-1.52024,-1.57572,0.01847,0.02333,0.38418,0.45237,1.00778,2.74757,4.47565,0.05000,0.00000,-0.05000,0.00000,0.00000,0.00000,0.00042,-0.00915,-0.01562,0.00096,-0.01212,-0.00040
6.562,0.01882,-0.91589,0.66394,-1.52087,-1.57582,0.01883,0.02341,0.38424,0.45225,1.00779,2.74762,4.47514,0.05000,0.00000,-0.05000,0.00000,0.00000,0.00000,0.00044,-0.00917,-0.01566,0.00097,-0.01212,-0.00041
6.613,0.01918,-0.91606,0.66523,-1.52151,-1.57592,0.01919,0.02350,0.38430,0.45213,1.00779,2.74767,4.47463,0.05000,0.00000,-0.05000,0.00000,0.00000,0.00000,0.00045,-0.00919,-0.01570,0.00097,-0.01213,-0.00041
6.664,0.01953,-0.91622,0.66652,-1.52215,-1.57603,0.01955,0.02359,0.38436,0.45201,1.00779,2.74771,4.47412,0.05000,0.00000,-0.05000,0.00000,0.00000,0.00000,0.00047,-0.00920,-0.01574,0.00097,-0.01213,-0.00041
6.715,0.01989,-0.91638,0.66781,-1.52279,-1.57613,0.01991,0.02367,0.38441,0.45189,1.00779,2.74776,4.47362,0.05000,0.00000,-0.05000,0.00000,0.00000,0.00000,0.00048,-0.00922,-0.01578,0.00098,-0.01213,-0.00041
6.766,0.02025,-0.91655,0.66911,-1.52343,-1.57623,0.02027,0.02376,0.38447,0.45177,1.00780,2.74780,4.47310,0.05000,0.00000,-0.05000,0.00000,0.00000,0.00000,0.00049,-0.00924,-0.01582,0.00098,-0.01213,-0.00041
6.816,0.02060,-0.91671,0.67040,-1.52408,-1.57634,0.02063,0.02385,0.38453,0.45166,1.00780,2.74785,4.47259,0.05000,0.00000,-0.05000,0.00000,0.00000,0.00000,0.00051,-0.00926,-0.01585,0.00099,-0.01214,-0.00041
6.866,0.02104,-0.91690,0.67196,-1.52485,-1.57646,0.02106,0.02395,0.38460,0.45151,1.00780,2.74790,4.47198,0.05000,0.00000,-0.05000,0.00000,0.00000,0.00000,0.00052,-0.00928,-0.01590,0.00099,-0.01214,-0.00042
6.918,0.02132,-0.91703,0.67300,-1.52537,-1.57654,0.02135,0.02402,0.38464,0.45142,1.00780,2.74793,4.47157,0.05000,0.00000,-0.05000,0.00000,0.00000,0.00000,0.00054,-0.00929,-0.01593,0.00099,-0.01214,-0.00042
6.969,0.02175,-0.91723,0.67456,-1.52615,-1.57667,0.02179,0.02413,0.38471,0.45127,1.00780,2.74798,4.47095,0.05000,0.00000,-0.05000,0.00000,0.00000,0.00000,0.00055,-0.00931,-0.01598,0.00100,-0.01214,-0.00042
7.019,0.02204,-0.91736,0.67560,-1.52668,-1.57675,0.02208,0.02420,0.38476,0.45118,1.00781,2.74802,4.47054,0.05000,0.00000,-0.05000,0.00000,0.00000,0.00000,0.00056,-0.00932,-0.01601,0.00100,-0.01215,-0.00042
7.070,0.02248,-0.91755,0.67717,-1.52746,-1.57687,0.02252,0.02430,0.38482,0.45103,1.00781,2.74807,4.46992,0.05000,0.00000,-0.05000,0.00000,0.00000,0.00000,0.00058,-0.00935,-0.01606,0.00101,-0.01215,-0.00042
7.120,0.02284,-0.91771,0.67848,-1.52812,-1.57698,0.02288,0.02439,0.38488,0.45091,1.00781,2.74811,4.46940,0.05000,0.00000,-0.05000,0.00000,0.00000,0.00000,0.00060,-0.00936,-0.01610,0.00101,-0.01215,-0.00042
7.171,0.02320,-0.91787,0.67978,-1.52878,-1.57708,0.02325,0.02448,0.38493,0.45079,1.00781,2.74815,4.46888,0.05000,0.00000,-0.05000,0.00000,0.00000,0.00000,0.00061,-0.00938,-0.01613,0.00102,-0.01215,-0.00043
7.222,0.02356,-0.91803,0.68110,-1.52944,-1.57718,0.02362,0.02457,0.38499,0.45067,1.00782,2.74819,4.46836,0.05000,0.00000,-0.05000,0.00000,0.00000,0.00000,0.00063,-0.00940,-0.01617,0.00102,-0.01216,-0.00043
7.273,0.02393,-0.91819,0.68241,-1.53011,-1.57728,0.02399,0.02466,0.38504,0.45054,1.00782,2.74822,4.46783,0.05000,0.00000,-0.05000,0.00000,0.00000,0.00000,0.00064,-0.00941,-0.01621,0.00102,-0.01216,-0.00043
7.324,0.02429,-0.91835,0.68373,-1.53077,-1.57739,0.02436,0.02475,0.38510,0.45042,1.00782,2.74826,4.46731,0.05000,0.00000,-0.05000,0.00000,0.00000,0.00000,0.00066,-0.00943,-0.01625,0.00103,-0.01216,-0.00043
7.375,0.02466,-0.91851,0.68504,-1.53144,-1.57749,0.02473,0.02484,0.38515,0.45030,1.00782,2.74830,4.46679,0.05000,0.00000,-0.05000,0.00000,0.00000,0.00000,0.00067,-0.00945,-0.01629,0.00103,-0.01216,-0.00043
7.426,0.02503,-0.91867,0.68636,-1.53211,-1.57759,0.02510,0.02493,0.38520,0.45017,1.00782,2.74834,4.46626,0.05000,0.00000,-0.05000,0.00000,0.00000,0.00000,0.00068,-0.00947,-0.01633,0.00104,-0.01216,-0.00043
7.477,0.02539,-0.91883,0.68768,-1.53279,-1.57769,0.02547,0.02502,0.38526,0.45005,1.00783,2.74837,4.46574,0.05000,0.00000,-0.05000,0.00000,0.00000,0.00000,0.00070,-0.00948,-0.01637,0.00104,-0.01217,-0.00044
7.528,0.02576,-0.91899,0.68901,-1.53346,-1.57780,0.02584,0.02511,0.38531,0.44993,1.00783,2.74841,4.46521,0.05000,0.00000,-0.05000,0.00000,0.00000,0.00000,0.00072,-0.00950,-0.01641,0.00105,-0.01217,-0.00044
7.580,0.02613,-0.91914,0.69033,-1.53414,-1.57790,0.02621,0.02520,0.38536,0.44980,1.00783,2.74845,4.46468,0.05000,0.00000,-0.05000,0.00000,0.00000,0.00000,0.00073,-0.00952,-0.01645,0.00105,-0.01217,-0.00044
7.629,0.02650,-0.91930,0.69166,-1.53482,-1.57800,0.02659,0.02529,0.38541,0.44968,1.00783,2.74848,4.46415,0.05000,0.00000,-0.05000,0.00000,0.00000,0.00000,0.00075,-0.00954,-0.01649,0.00105,-0.01217,-0.00044
7.680,0.02687,-0.91946,0.69299,-1.53550,-1.57810,0.02696,0.02538,0.38547,0.44955,1.00783,2.74851,4.46362,0.05000,0.00000,-0.05000,0.00000,0.00000,0.00000,0.00076,-0.00955,-0.01653,0.00106,-0.01218,-0.00044
7.731,0.02731,-0.91965,0.69459,-1.53632,-1.57823,0.02741,0.02549,0.38553,0.44940,1.00784,2.74855,4.46298,0.05000,0.00000,-0.05000,0.00000,0.00000,0.00000,0.00078,-0.00958,-0.01658,0.00106,-0.01218,-0.00044
7.782,0.02761,-0.91977,0.69565,-1.53687,-1.57831,0.02771,0.02557,0.38557,0.44930,1.00784,2.74858,4.46255,0.05000,0.00000,-0.05000,0.00000,0.00000,0.00000,0.00079,-0.00959,-0.01661,0.00107,-0.01218,-0.00045
7.833,0.02798,-0.91993,0.69699,-1.53755,-1.57841,0.02809,0.02566,0.38562,0.44918,1.00784,2.74861,4.46202,0.05000,0.00000,-0.05000,0.00000,0.00000,0.00000,0.00081,-0.00961,-0.01665,0.00107,-0.01218,-0.00045
7.885,0.02835,-0.92009,0.69833,-1.53824,-1.57851,0.02846,0.02575,0.38567,0.44905,1.00784,2.74864,4.46148,0.05000,0.00000,-0.05000,0.00000,0.00000,0.00000,0.00082,-0.00962,-0.01669,0.00108,-0.01218,-0.00045
7.935,0.02872,-0.92024,0.69966,-1.53894,-1.57861,0.02884,0.02585,0.38572,0.44892,1.00785,2.74867,4.46095,0.05000,0.00000,-0.05000,0.00000,0.00000,0.00000,0.00084,-0.00964,-0.01673,0.00108,-0.01219,-0.00045
7.986,0.02917,-0.92043,0.70127,-1.53977,-1.57873,0.02930,0.02596,0.38578,0.44877,1.00785,2.74871,4.46030,0.05000,0.00000,-0.05000,0.00000,0.00000,0.00000,0.00086,-0.00966,-0.01678,0.00108,-0.01219,-0.00045
8.037,0.02954,-0.92058,0.70261,-1.54046,-1.57884,0.02968,0.02605,0.38583,0.44864,1.00785,2.74874,4.45976,0.05000,0.00000,-0.05000,0.00000,0.00000,0.00000,0.00087,-0.00968,-0.01682,0.00109,-0.01219,-0.00045
8.088,0.02992,-0.92074,0.70396,-1.54116,-1.57894,0.03006,0.02615,0.38588,0.44852,1.00785,2.74877,4.45922,0.05000,0.00000,-0.05000,0.00000,0.00000,0.00000,0.00089,-0.00970,-0.01686,0.00109,-0.01219,-0.00046
8.139,0.03022,-0.92086,0.70504,-1.54172,-1.57902,0.03036,0.02622,0.38592,0.44841,1.00785,2.74879,4.45879,0.05000,0.00000,-0.05000,0.00000,0.00000,0.00000,0.00090,-0.00971,-0.01690,0.00110,-0.01219,-0.00046
8.189,0.03052,-0.92098,0.70611,-1.54229,-1.57910,0.03067,0.02630,0.38596,0.44831,1.00786,2.74881,4.45835,0.05000,0.00000,-0.05000,0.00000,0.00000,0.00000,0.00092,-0.00973,-0.01693,0.00110,-0.01220,-0.00046
8.239,0.03090,-0.92113,0.70746,-1.54299,-1.57920,0.03105,0.02639,0.38600,0.44818,1.00786,2.74884,4.45781,0.05000,0.00000,-0.05000,0.00000,0.00000,0.00000,0.00093,-0.00974,-0.01697,0.00110,-0.01220,-0.00046
8.290,0.03127,-0.92129,0.70881,-1.54370,-1.57930,0.03143,0.02648,0.38605,0.44805,1.00786,2.74887,4.45727,0.05000,0.00000,-0.05000,0.00000,0.00000,0.00000,0.00095,-0.00976,-0.01701,0.00111,-0.01220,-0.00046
8.342,0.03165,-0.92144,0.71017,-1.54441,-1.57941,0.03182,0.02658,0.38610,0.44792,1.00786,2.74889,4.45672,0.05000,0.00000,-0.05000,0.00000,0.00000,0.00000,0.00096,-0.00978,-0.01705,0.00111,-0.01220,-0.00046
8.392,0.03188,-0.92153,0.71098,-1.54483,-1.57947,0.03205,0.02664,0.38613,0.44785,1.00786,2.74891,4.45639,0.05000,0.00000,-0.05000,0.00000,0.00000,0.00000,0.00097,-0.00979,-0.01708,0.00112,-0.01220,-0.00046
8.443,0.03226,-0.92168,0.71234,-1.54555,-1.57957,0.03244,0.02673,0.38617,0.44772,1.00787,2.74893,4.45584,0.05000,0.00000,-0.05000,0.00000,0.00000,0.00000,0.00099,-0.00981,-0.01712,0.00112,-0.01220,-0.00047
8.494,0.03264,-0.92183,0.71370,-1.54626,-1.57967,0.03282,0.02683,0.38622,0.44759,1.00787,2.74896,4.45529,0.05000,0.00000,-0.05000,0.00000,0.00000,0.00000,0.00101,-0.00983,-0.01716,0.00113,-0.01221,-0.00047
8.544,0.03309,-0.92201,0.71533,-1.54712,-1.57979,0.03329,0.02694,0.38627,0.44743,1.00787,2.74899,4.45463,0.05000,0.00000,-0.05000,0.00000,0.00000,0.00000,0.00103,-0.00985,-0.01721,0.00113,-0.01221,-0.00047
8.595,0.03347,-0.92216,0.71669,-1.54784,-1.57989,0.03367,0.02704,0.38632,0.44730,1.00787,2.74901,4.45408,0.05000,0.00000,-0.05000,0.00000,0.00000,0.00000,0.00104,-0.00986,-0.01725,0.00113,-0.01221,-0.00047
8.646,0.03393,-0.92234,0.71833,-1.54871,-1.58001,0.03414,0.02716,0.38637,0.44714,1.00788,2.74904,4.45342,0.05000,0.00000,-0.05000,0.00000,0.00000,0.00000,0.00107,-0.00989,-0.01730,0.00114,-0.01221,-0.00047
8.697,0.03424,-0.92246,0.71943,-1.54929,-1.58009,0.03445,0.02723,0.38641,0.44704,1.00788,2.74905,4.45298,0.05000,0.00000,-0.05000,0.00000,0.00000,0.00000,0.00108,-0.00990,-0.01734,0.00114,-0.01221,-0.00047
8.748,0.03462,-0.92261,0.72079,-1.55001,-1.58019,0.03484,0.02733,0.38645,0.44691,1.00788,2.74907,4.45242,0.05000,0.00000,-0.05000,0.00000,0.00000,0.00000,0.00110,-0.00992,-0.01738,0.00115,-0.01222,-0.00048
8.799,0.03501,-0.92276,0.72216,-1.55074,-1.58029,0.03523,0.02743,0.38650,0.44678,1.00788,2.74909,4.45186,0.05000,0.00000,-0.05000,0.00000,0.00000,0.00000,0.00111,-0.00994,-0.01742,0.00115,-0.01222,-0.00048
8.850,0.03547,-0.92294,0.72381,-1.55162,-1.58042,0.03570,0.02755,0.38655,0.44662,1.00788,2.74912,4.45120,0.05000,0.00000,-0.05000,0.00000,0.00000,0.00000,0.00113,-0.00996,-0.01747,0.00116,-0.01222,-0.00048
8.900,0.03578,-0.92306,0.72491,-1.55220,-1.58050,0.03602,0.02762,0.38658,0.44651,1.00789,2.74913,4.45075,0.05000,0.00000,-0.05000,0.00000,0.00000,0.00000,0.00115,-0.00997,-0.01750,0.00116,-0.01222,-0.00048
8.951,0.03616,-0.92321,0.72629,-1.55294,-1.58060,0.03641,0.02772,0.38662,0.44638,1.00789,2.74915,4.45019,0.05000,0.00000,-0.05000,0.00000,0.00000,0.00000,0.00117,-0.00999,-0.01755,0.00117,-0.01222,-0.00048
9.002,0.03663,-0.92338,0.72794,-1.55383,-1.58072,0.03689,0.02784,0.38667,0.44622,1.00789,2.74917,4.44952,0.05000,0.00000,-0.05000,0.00000,0.00000,0.00000,0.00119,-0.01001,-0.01760,0.00117,-0.01222,-0.00048
9.053,0.03709,-0.92356,0.72960,-1.55471,-1.58084,0.03736,0.02796,0.38672,0.44606,1.00789,2.74919,4.44884,0.05000,0.00000,-0.05000,0.00000,0.00000,0.00000,0.00121,-0.01003,-0.01765,0.00118,-0.01223,-0.00049
9.104,0.03748,-0.92370,0.73098,-1.55546,-1.58094,0.03776,0.02806,0.38677,0.44592,1.00789,2.74920,4.44828,0.05000,0.00000,-0.05000,0.00000,0.00000,0.00000,0.00123,-0.01005,-0.01769,0.00118,-0.01223,-0.00049
9.155,0.03795,-0.92388,0.73265,-1.55635,-1.58106,0.03823,0.02818,0.38681,0.44576,1.00790,2.74922,4.44760,0.05000,0.00000,-0.05000,0.00000,0.00000,0.00000,0.00125,-0.01007,-0.01774,0.00119,-0.01223,-0.00049
9.207,0.03834,-0.92402,0.73403,-1.55710,-1.58116,0.03863,0.02828,0.38685,0.44563,1.00790,2.74923,4.44703,0.05000,0.00000,-0.05000,0.00000,0.00000,0.00000,0.00126,-0.01009,-0.01779,0.00119,-0.01223,-0.00049
9.258,0.03880,-0.92419,0.73570,-1.55800,-1.58128,0.03911,0.02840,0.38690,0.44547,1.00790,2.74925,4.44635,0.05000,0.00000,-0.05000,0.00000,0.00000,0.00000,0.00129,-0.01011,-0.01784,0.00120,-0.01223,-0.00049
9.309,0.03920,-0.92434,0.73709,-1.55875,-1.58138,0.03951,0.02850,0.38694,0.44533,1.00790,2.74926,4.44578,0.05000,0.00000,-0.05000,0.00000,0.00000,0.00000,0.00130,-0.01013,-0.01788,0.00120,-0.01223,-0.00050
9.360,0.03959,-0.92448,0.73849,-1.55951,-1.58148,0.03991,0.02860,0.38698,0.44520,1.00791,2.74927,4.44521,0.05000,0.00000,-0.05000,0.00000,0.00000,0.00000,0.00132,-0.01015,-0.01792,0.00121,-0.01224,-0.00050
9.411,0.03998,-0.92462,0.73988,-1.56027,-1.58158,0.04031,0.02870,0.38702,0.44506,1.00791,2.74928,4.44464,0.05000,0.00000,-0.05000,0.00000,0.00000,0.00000,0.00134,-0.01017,-0.01797,0.00121,-0.01224,-0.00050
9.462,0.04045,-0.92479,0.74156,-1.56118,-1.58170,0.04079,0.02882,0.38706,0.44490,1.00791,2.74929,4.44395,0.05000,0.00000,-0.05000,0.00000,0.00000,0.00000,0.00136,-0.01019,-0.01802,0.00122,-0.01224,-0.00050
9.513,0.04085,-0.92494,0.74296,-1.56194,-1.58180,0.04120,0.02892,0.38710,0.44476,1.00791,2.74930,4.44338,0.05000,0.00000,-0.05000,0.00000,0.00000,0.00000,0.00138,-0.01021,-0.01806,0.00122,-0.01224,-0.00050
9.564,0.04124,-0.92508,0.74436,-1.56271,-1.58190,0.04160,0.02903,0.38713,0.44463,1.00791,2.74931,4.44280,0.05000,0.00000,-0.05000,0.00000,0.00000,0.00000,0.00140,-0.01022,-0.01811,0.00123,-0.01224,-0.00051
9.614,0.04172,-0.92525,0.74605,-1.56363,-1.58202,0.04209,0.02915,0.38718,0.44446,1.00792,2.74932,4.44211,0.05000,0.00000,-0.05000,0.00000,0.00000,0.00000,0.00142,-0.01025,-0.01816,0.00123,-0.01224,-0.00051
9.665,0.04219,-0.92541,0.74773,-1.56455,-1.58214,0.04257,0.02927,0.38722,0.44430,1.00792,2.74933,4.44142,0.05000,0.00000,-0.05000,0.00000,0.00000,0.00000,0.00145,-0.01027,-0.01821,0.00124,-0.01224,-0.00051
9.717,0.04259,-0.92555,0.74914,-1.56533,-1.58224,0.04298,0.02938,0.38725,0.44416,1.00792,2.74933,4.44084,0.05000,0.00000,-0.05000,0.00000,0.00000,0.00000,0.00146,-0.01029,-0.01826,0.00124,-0.01225,-0.00051
9.767,0.04299,-0.92569,0.75055,-1.56610,-1.58234,0.04339,0.02948,0.38729,0.44402,1.00792,2.74934,4.44026,0.05000,0.00000,-0.05000,0.00000,0.00000,0.00000,0.00148,-0.01030,-0.01830,0.00125,-0.01225,-0.00051
9.818,0.04347,-0.92586,0.75225,-1.56704,-1.58245,0.04388,0.02960,0.38733,0.44386,1.00793,2.74934,4.43956,0.05000,0.00000,-0.05000,0.00000,0.00000,0.00000,0.00151,-0.01033,-0.01835,0.00125,-0.01225,-0.00051
9.869,0.04387,-0.92599,0.75366,-1.56782,-1.58255,0.04429,0.02971,0.38736,0.44372,1.00793,2.74935,4.43898,0.05000,0.00000,-0.05000,0.00000,0.00000,0.00000,0.00153,-0.01034,-0.01840,0.00126,-0.01225,-0.00052
9.919,0.04427,-0.92613,0.75508,-1.56860,-1.58265,0.04470,0.02981,0.38739,0.44358,1.00793,2.74935,4.43839,0.05000,0.00000,-0.05000,0.00000,0.00000,0.00000,0.00154,-0.01036,-0.01844,0.00126,-0.01225,-0.00052
9.970,0.04475,-0.92629,0.75678,-1.56954,-1.58277,0.04519,0.02994,0.38743,0.44341,1.00793,2.74935,4.43769,0.05000,0.00000,-0.05000,0.00000,0.00000,0.00000,0.00157,-0.01038,-0.01849,0.00127,-0.01225,-0.00052
10.021,0.04523,-0.92646,0.75849,-1.57049,-1.58289,0.04569,0.03006,0.38747,0.44325,1.00794,2.74935,4.43699,0.05000,0.00000,-0.05000,0.00000,0.00000,0.00000,0.00159,-0.01041,-0.01855,0.00127,-0.01225,-0.00052
10.072,0.04563,-0.92659,0.75991,-1.57128,-1.58299,0.04610,0.03017,0.38750,0.44311,1.00794,2.74935,4.43640,0.05000,0.00000,-0.05000,0.00000,0.00000,0.00000,0.00161,-0.01042,-0.01859,0.00128,-0.01225,-0.00052
10.122,0.04612,-0.92675,0.76162,-1.57223,-1.58311,0.04660,0.03029,0.38754,0.44294,1.00794,2.74935,4.43569,0.05000,0.00000,-0.05000,0.00000,0.00000,0.00000,0.00164,-0.01045,-0.01865,0.00128,-0.01226,-0.00053
10.173,0.04660,-0.92691,0.76333,-1.57319,-1.58323,0.04709,0.03042,0.38757,0.44277,1.00794,2.74934,4.43498,0.05000,0.00000,-0.05000,0.00000,0.00000,0.00000,0.00166,-0.01047,-0.01870,0.00129,-0.01226,-0.00053
10.224,0.04701,-0.92705,0.76476,-1.57399,-1.58332,0.04751,0.03053,0.38760,0.44263,1.00794,2.74934,4.43439,0.05000,0.00000,-0.05000,0.00000,0.00000,0.00000,0.00168,-0.01049,-0.01875,0.00129,-0.01226,-0.00053
10.275,0.04750,-0.92720,0.76648,-1.57495,-1.58344,0.04801,0.03065,0.38763,0.44246,1.00795,2.74934,4.43368,0.05000,0.00000,-0.05000,0.00000,0.00000,0.00000,0.00170,-0.01051,-0.01880,0.00130,-0.01226,-0.00053
10.326,0.04798,-0.92736,0.76820,-1.57591,-1.58356,0.04851,0.03078,0.38767,0.44229,1.00795,2.74933,4.43296,0.05000,0.00000,-0.05000,0.00000,0.00000,0.00000,0.00173,-0.01053,-0.01885,0.00131,-0.01226,-0.00053
10.376,0.04839,-0.92749,0.76963,-1.57672,-1.58366,0.04893,0.03089,0.38769,0.44215,1.00795,2.74932,4.43237,0.05000,0.00000,-0.05000,0.00000,0.00000,0.00000,0.00175,-0.01055,-0.01890,0.00131,-0.01226,-0.00054
10.427,0.04880,-0.92762,0.77107,-1.57753,-1.58376,0.04935,0.03100,0.38772,0.44201,1.00795,2.74932,4.43177,0.05000,0.00000,-0.05000,0.00000,0.00000,0.00000,0.00177,-0.01057,-0.01894,0.00132,-0.01226,-0.00054
10.478,0.04929,-0.92778,0.77280,-1.57851,-1.58387,0.04986,0.03113,0.38775,0.44184,1.00796,2.74931,4.43105,0.05000,0.00000,-0.05000,0.00000,0.00000,0.00000,0.00179,-0.01059,-0.01900,0.00132,-0.01226,-0.00054
10.529,0.04970,-0.92791,0.77424,-1.57932,-1.58397,0.05028,0.03123,0.38778,0.44170,1.00796,2.74930,4.43045,0.05000,0.00000,-0.05000,0.00000,0.00000,0.00000,0.00181,-0.01061,-0.01905,0.00133,-0.01226,-0.00054
10.581,0.05011,-0.92804,0.77569,-1.58014,-1.58407,0.05070,0.03134,0.38780,0.44155,1.00796,2.74929,4.42985,0.05000,0.00000,-0.05000,0.00000,0.00000,0.00000,0.00183,-0.01062,-0.01909,0.00133,-0.01226,-0.00054
10.631,0.05052,-0.92817,0.77713,-1.58096,-1.58417,0.05112,0.03145,0.38782,0.44141,1.00796,2.74928,4.42924,0.05000,0.00000,-0.05000,0.00000,0.00000,0.00000,0.00185,-0.01064,-0.01914,0.00134,-0.01226,-0.00055
10.682,0.05102,-0.92832,0.77887,-1.58195,-1.58428,0.05163,0.03158,0.38785,0.44124,1.00796,2.74926,4.42852,0.05000,0.00000,-0.05000,0.00000,0.00000,0.00000,0.00188,-0.01067,-0.01919,0.00134,-0.01227,-0.00055
10.732,0.05143,-0.92844,0.78032,-1.58277,-1.58438,0.05206,0.03169,0.38787,0.44110,1.00797,2.74925,4.42791,0.05000,0.00000,-0.05000,0.00000,0.00000,0.00000,0.00190,-0.01068,-0.01924,0.00135,-0.01227,-0.00055
10.783,0.05193,-0.92859,0.78206,-1.58377,-1.58450,0.05257,0.03182,0.38790,0.44093,1.00797,2.74923,4.42719,0.05000,0.00000,-0.05000,0.00000,0.00000,0.00000,0.00193,-0.01071,-0.01929,0.00135,-0.01227,-0.00055
10.834,0.05234,-0.92872,0.78352,-1.58460,-1.58460,0.05299,0.03193,0.38792,0.44078,1.00797,2.74922,4.42658,0.05000,0.00000,-0.05000,0.00000,0.00000,0.00000,0.00195,-0.01072,-0.01934,0.00136,-0.01227,-0.00055
10.885,0.05268,-0.92882,0.78469,-1.58526,-1.58467,0.05334,0.03202,0.38794,0.44067,1.00797,2.74921,4.42609,0.05000,0.00000,-0.05000,0.00000,0.00000,0.00000,0.00196,-0.01074,-0.01938,0.00136,-0.01227,-0.00055
10.936,0.05318,-0.92897,0.78643,-1.58627,-1.58479,0.05385,0.03215,0.38796,0.44049,1.00797,2.74919,4.42536,0.05000,0.00000,-0.05000,0.00000,0.00000,0.00000,0.00199,-0.01076,-0.01943,0.00137,-0.01227,-0.00056
10.987,0.05359,-0.92909,0.78790,-1.58711,-1.58489,0.05428,0.03226,0.38798,0.44035,1.00798,2.74917,4.42475,0.05000,0.00000,-0.05000,0.00000,0.00000,0.00000,0.00201,-0.01078,-0.01948,0.00137,-0.01227,-0.00056
11.037,0.05401,-0.92921,0.78936,-1.58795,-1.58498,0.05471,0.03237,0.38800,0.44021,1.00798,2.74915,4.42413,0.05000,0.00000,-0.05000,0.00000,0.00000,0.00000,0.00203,-0.01080,-0.01953,0.00138,-0.01227,-0.00056
11.088,0.05443,-0.92933,0.79082,-1.58879,-1.58508,0.05514,0.03249,0.38802,0.44006,1.00798,2.74913,4.42352,0.05000,0.00000,-0.05000,0.00000,0.00000,0.00000,0.00206,-0.01082,-0.01957,0.00138,-0.01227,-0.00056
11.140,0.05493,-0.92948,0.79258,-1.58980,-1.58520,0.05566,0.03262,0.38804,0.43989,1.00798,2.74911,4.42278,0.05000,0.00000,-0.05000,0.00000,0.00000,0.00000,0.00208,-0.01084,-0.01963,0.00139,-0.01227,-0.00056
11.191,0.05535,-0.92960,0.79405,-1.59065,-1.58529,0.05609,0.03273,0.38805,0.43974,1.00798,2.74909,4.42216,0.05000,0.00000,-0.05000,0.00000,0.00000,0.00000,0.00210,-0.01086,-0.01968,0.00139,-0.01227,-0.00057
11.242,0.05586,-0.92974,0.79581,-1.59168,-1.58541,0.05661,0.03287,0.38807,0.43957,1.00799,2.74906,4.42142,0.05000,0.00000,-0.05000,0.00000,0.00000,0.00000,0.00213,-0.01088,-0.01973,0.00140,-0.01227,-0.00057
11.292,0.05628,-0.92986,0.79729,-1.59253,-1.58551,0.05705,0.03298,0.38809,0.43942,1.00799,2.74904,4.42080,0.05000,0.00000,-0.05000,0.00000,0.00000,0.00000,0.00215,-0.01090,-0.01978,0.00140,-0.01227,-0.00057
11.344,0.05679,-0.93000,0.79906,-1.59356,-1.58562,0.05757,0.03311,0.38811,0.43925,1.00799,2.74901,4.42006,0.05000,0.00000,-0.05000,0.00000,0.00000,0.00000,0.00218,-0.01092,-0.01984,0.00141,-0.01227,-0.00057
11.395,0.05721,-0.93012,0.80053,-1.59442,-1.58572,0.05801,0.03323,0.38812,0.43910,1.00799,2.74898,4.41943,0.05000,0.00000,-0.05000,0.00000,0.00000,0.00000,0.00220,-0.01094,-0.01988,0.00142,-0.01227,-0.00057
11.446,0.05764,-0.93024,0.80201,-1.59528,-1.58581,0.05845,0.03334,0.38813,0.43896,1.00800,2.74896,4.41881,0.05000,0.00000,-0.05000,0.00000,0.00000,0.00000,0.00222,-0.01096,-0.01993,0.00142,-0.01227,-0.00058
11.497,0.05806,-0.93035,0.80349,-1.59615,-1.58591,0.05888,0.03345,0.38814,0.43881,1.00800,2.74893,4.41819,0.05000,0.00000,-0.05000,0.00000,0.00000,0.00000,0.00225,-0.01098,-0.01998,0.00143,-0.01227,-0.00058
11.549,0.05857,-0.93049,0.80527,-1.59719,-1.58603,0.05941,0.03359,0.38816,0.43864,1.00800,2.74890,4.41744,0.05000,0.00000,-0.05000,0.00000,0.00000,0.00000,0.00227,-0.01100,-0.02004,0.00143,-0.01227,-0.00058
11.599,0.05900,-0.93060,0.80676,-1.59806,-1.58612,0.05985,0.03371,0.38817,0.43849,1.00800,2.74887,4.41681,0.05000,0.00000,-0.05000,0.00000,0.00000,0.00000,0.00230,-0.01102,-0.02008,0.00144,-0.01227,-0.00058
11.650,0.05951,-0.93074,0.80854,-1.59911,-1.58624,0.06038,0.03384,0.38818,0.43831,1.00800,2.74883,4.41605,0.05000,0.00000,-0.05000,0.00000,0.00000,0.00000,0.00232,-0.01104,-0.02014,0.00144,-0.01227,-0.00058
11.701,0.05994,-0.93085,0.81003,-1.59998,-1.58633,0.06083,0.03396,0.38819,0.43817,1.00801,2.74880,4.41542,0.05000,0.00000,-0.05000,0.00000,0.00000,0.00000,0.00235,-0.01106,-0.02019,0.00145,-0.01227,-0.00058
11.751,0.06028,-0.93094,0.81122,-1.60069,-1.58641,0.06118,0.03405,0.38819,0.43805,1.00801,2.74877,4.41492,0.05000,0.00000,-0.05000,0.00000,0.00000,0.00000,0.00237,-0.01107,-0.02023,0.00145,-0.01227,-0.00059
11.802,0.06071,-0.93105,0.81272,-1.60157,-1.58650,0.06162,0.03417,0.38820,0.43790,1.00801,2.74874,4.41429,0.05000,0.00000,-0.05000,0.00000,0.00000,0.00000,0.00239,-0.01109,-0.02028,0.00146,-0.01227,-0.00059
11.853,0.06114,-0.93116,0.81421,-1.60245,-1.58660,0.06207,0.03428,0.38821,0.43775,1.00801,2.74870,4.41365,0.05000,0.00000,-0.05000,0.00000,0.00000,0.00000,0.00241,-0.01111,-0.02032,0.00146,-0.01227,-0.00059
11.903,0.06157,-0.93127,0.81571,-1.60334,-1.58669,0.06251,0.03440,0.38821,0.43761,1.00801,2.74867,4.41302,0.05000,0.00000,-0.05000,0.00000,0.00000,0.00000,0.00244,-0.01113,-0.02037,0.00147,-0.01227,-0.00059
11.954,0.06201,-0.93138,0.81721,-1.60423,-1.58679,0.06296,0.03451,0.38822,0.43746,1.00802,2.74863,4.41238,0.05000,0.00000,-0.05000,0.00000,0.00000,0.00000,0.00246,-0.01115,-0.02042,0.00147,-0.01227,-0.00059
12.005,0.06253,-0.93151,0.81901,-1.60530,-1.58690,0.06350,0.03465,0.38822,0.43728,1.00802,2.74859,4.41162,0.05000,0.00000,-0.05000,0.00000,0.00000,0.00000,0.00249,-0.01117,-0.02048,0.00148,-0.01227,-0.00060
12.055,0.06287,-0.93160,0.82021,-1.60601,-1.58698,0.06386,0.03475,0.38823,0.43716,1.00802,2.74856,4.41111,0.05000,0.00000,-0.05000,0.00000,0.00000,0.00000,0.00251,-0.01118,-0.02052,0.00148,-0.01227,-0.00060
12.106,0.06339,-0.93172,0.82201,-1.60709,-1.58709,0.06440,0.03489,0.38823,0.43699,1.00802,2.74851,4.41034,0.05000,0.00000,-0.05000,0.00000,0.00000,0.00000,0.00254,-0.01121,-0.02058,0.00149,-0.01227,-0.00060
12.157,0.06383,-0.93183,0.82352,-1.60799,-1.58719,0.06485,0.03501,0.38823,0.43684,1.00802,2.74847,4.40970,0.05000,0.00000,-0.05000,0.00000,0.00000,0.00000,0.00256,-0.01122,-0.02063,0.00149,-0.01227,-0.00060
12.207,0.06427,-0.93193,0.82503,-1.60889,-1.58728,0.06530,0.03513,0.38823,0.43669,1.00803,2.74843,4.40905,0.05000,0.00000,-0.05000,0.00000,0.00000,0.00000,0.00259,-0.01124,-0.02067,0.00150,-0.01227,-0.00060
12.258,0.06479,-0.93206,0.82684,-1.60998,-1.58739,0.06584,0.03527,0.38823,0.43651,1.00803,2.74838,4.40828,0.05000,0.00000,-0.05000,0.00000,0.00000,0.00000,0.00261,-0.01127,-0.02073,0.00151,-0.01227,-0.00061
12.309,0.06532,-0.93218,0.82866,-1.61107,-1.58751,0.06639,0.03541,0.38823,0.43634,1.00803,2.74832,4.40751,0.05000,0.00000,-0.05000,0.00000,0.00000,0.00000,0.00264,-0.01129,-0.02079,0.00151,-0.01227,-0.00061
12.359,0.06567,-0.93226,0.82987,-1.61180,-1.58758,0.06675,0.03550,0.38823,0.43622,1.00803,2.74829,4.40699,0.05000,0.00000,-0.05000,0.00000,0.00000,0.00000,0.00266,-0.01130,-0.02083,0.00152,-0.01227,-0.00061
12.411,0.06619,-0.93238,0.83169,-1.61289,-1.58770,0.06729,0.03565,0.38823,0.43604,1.00803,2.74823,4.40621,0.05000,0.00000,-0.05000,0.00000,0.00000,0.00000,0.00269,-0.01133,-0.02089,0.00152,-0.01227,-0.00061
12.461,0.06672,-0.93250,0.83351,-1.61399,-1.58781,0.06784,0.03579,0.38822,0.43586,1.00804,2.74818,4.40544,0.05000,0.00000,-0.05000,0.00000,0.00000,0.00000,0.00272,-0.01135,-0.02095,0.00153,-0.01227,-0.00061
12.512,0.06716,-0.93260,0.83503,-1.61492,-1.58790,0.06830,0.03591,0.38822,0.43571,1.00804,2.74813,4.40479,0.05000,0.00000,-0.05000,0.00000,0.00000,0.00000,0.00275,-0.01137,-0.02100,0.00153,-0.01227,-0.00061
12.563,0.06770,-0.93272,0.83686,-1.61602,-1.58801,0.06885,0.03606,0.38821,0.43553,1.00804,2.74807,4.40400,0.05000,0.00000,-0.05000,0.00000,0.00000,0.00000,0.00278,-0.01139,-0.02106,0.00154,-0.01227,-0.00062
12.613,0.06814,-0.93282,0.83838,-1.61695,-1.58811,0.06931,0.03618,0.38820,0.43538,1.00804,2.74802,4.40335,0.05000,0.00000,-0.05000,0.00000,0.00000,0.00000,0.00280,-0.01141,-0.02111,0.00155,-0.01227,-0.00062
12.664,0.06858,-0.93291,0.83991,-1.61788,-1.58820,0.06977,0.03630,0.38820,0.43523,1.00804,2.74797,4.40270,0.05000,0.00000,-0.05000,0.00000,0.00000,0.00000,0.00283,-0.01143,-0.02116,0.00155,-0.01227,-0.00062
12.716,0.06903,-0.93301,0.84144,-1.61881,-1.58829,0.07023,0.03642,0.38819,0.43509,1.00805,2.74791,4.40204,0.05000,0.00000,-0.05000,0.00000,0.00000,0.00000,0.00285,-0.01144,-0.02121,0.00156,-0.01227,-0.00062
12.767,0.06947,-0.93310,0.84297,-1.61974,-1.58839,0.07069,0.03654,0.38818,0.43494,1.00805,2.74786,4.40138,0.05000,0.00000,-0.05000,0.00000,0.00000,0.00000,0.00288,-0.01146,-0.02126,0.00156,-0.01227,-0.00062
12.818,0.06992,-0.93320,0.84450,-1.62068,-1.58848,0.07116,0.03666,0.38817,0.43479,1.00805,2.74780,4.40073,0.05000,0.00000,-0.05000,0.00000,0.00000,0.00000,0.00291,-0.01148,-0.02131,0.00157,-0.01227,-0.00063
12.869,0.07037,-0.93329,0.84604,-1.62162,-1.58857,0.07162,0.03678,0.38816,0.43464,1.00805,2.74775,4.40007,0.05000,0.00000,-0.05000,0.00000,0.00000,0.00000,0.00293,-0.01150,-0.02136,0.00157,-0.01226,-0.00063
12.920,0.07081,-0.93338,0.84757,-1.62256,-1.58867,0.07208,0.03691,0.38814,0.43449,1.00805,2.74769,4.39941,0.05000,0.00000,-0.05000,0.00000,0.00000,0.00000,0.00296,-0.01152,-0.02141,0.00158,-0.01226,-0.00063
12.971,0.07117,-0.93345,0.84880,-1.62332,-1.58874,0.07246,0.03700,0.38813,0.43437,1.00806,2.74764,4.39888,0.05000,0.00000,-0.05000,0.00000,0.00000,0.00000,0.00298,-0.01153,-0.02145,0.00158,-0.01226,-0.00063
13.022,0.07171,-0.93356,0.85065,-1.62446,-1.58885,0.07302,0.03715,0.38812,0.43419,1.00806,2.74757,4.39808,0.05000,0.00000,-0.05000,0.00000,0.00000,0.00000,0.00301,-0.01156,-0.02151,0.00159,-0.01226,-0.00063
13.073,0.07225,-0.93367,0.85250,-1.62560,-1.58896,0.07358,0.03730,0.38810,0.43401,1.00806,2.74750,4.39729,0.05000,0.00000,-0.05000,0.00000,0.00000,0.00000,0.00304,-0.01158,-0.02157,0.00159,-0.01226,-0.00064
13.123,0.07270,-0.93376,0.85404,-1.62655,-1.58905,0.07405,0.03742,0.38808,0.43386,1.00806,2.74744,4.39662,0.05000,0.00000,-0.05000,0.00000,0.00000,0.00000,0.00307,-0.01160,-0.02162,0.00160,-0.01226,-0.00064
13.174,0.07325,-0.93386,0.85590,-1.62770,-1.58916,0.07461,0.03757,0.38806,0.43368,1.00806,2.74736,4.39582,0.05000,0.00000,-0.05000,0.00000,0.00000,0.00000,0.00310,-0.01162,-0.02168,0.00161,-0.01226,-0.00064
13.226,0.07370,-0.93395,0.85745,-1.62866,-1.58926,0.07508,0.03770,0.38804,0.43353,1.00807,2.74730,4.39515,0.05000,0.00000,-0.05000,0.00000,0.00000,0.00000,0.00313,-0.01164,-0.02174,0.00161,-0.01226,-0.00064
13.276,0.07415,-0.93403,0.85899,-1.62962,-1.58935,0.07555,0.03782,0.38803,0.43339,1.00807,2.74723,4.39448,0.05000,0.00000,-0.05000,0.00000,0.00000,0.00000,0.00315,-0.01166,-0.02179,0.00162,-0.01226,-0.00064
13.327,0.07461,-0.93411,0.86055,-1.63059,-1.58944,0.07602,0.03795,0.38800,0.43324,1.00807,2.74717,4.39381,0.05000,0.00000,-0.05000,0.00000,0.00000,0.00000,0.00318,-0.01168,-0.02184,0.00162,-0.01226,-0.00065
13.378,0.07515,-0.93421,0.86241,-1.63175,-1.58955,0.07659,0.03810,0.38798,0.43306,1.00807,2.74708,4.39301,0.05000,0.00000,-0.05000,0.00000,0.00000,0.00000,0.00321,-0.01170,-0.02190,0.00163,-0.01225,-0.00065
13.429,0.07561,-0.93429,0.86396,-1.63272,-1.58964,0.07707,0.03822,0.38796,0.43291,1.00807,2.74701,4.39234,0.05000,0.00000,-0.05000,0.00000,0.00000,0.00000,0.00324,-0.01172,-0.02195,0.00163,-0.01225,-0.00065
13.480,0.07616,-0.93439,0.86583,-1.63389,-1.58975,0.07764,0.03837,0.38793,0.43273,1.00808,2.74693,4.39153,0.05000,0.00000,-0.05000,0.00000,0.00000,0.00000,0.00327,-0.01174,-0.02201,0.00164,-0.01225,-0.00065
13.532,0.07662,-0.93447,0.86739,-1.63487,-1.58984,0.07811,0.03850,0.38790,0.43258,1.00808,2.74686,4.39085,0.05000,0.00000,-0.05000,0.00000,0.00000,0.00000,0.00330,-0.01176,-0.02206,0.00165,-0.01225,-0.00065
13.583,0.07708,-0.93455,0.86896,-1.63585,-1.58993,0.07859,0.03863,0.38788,0.43243,1.00808,2.74678,4.39017,0.05000,0.00000,-0.05000,0.00000,0.00000,0.00000,0.00333,-0.01178,-0.02212,0.00165,-0.01225,-0.00066
13.634,0.07754,-0.93463,0.87052,-1.63683,-1.59002,0.07907,0.03875,0.38785,0.43228,1.00808,2.74671,4.38950,0.05000,0.00000,-0.05000,0.00000,0.00000,0.00000,0.00335,-0.01180,-0.02217,0.00166,-0.01225,-0.00066
13.684,0.07800,-0.93470,0.87208,-1.63782,-1.59012,0.07955,0.03888,0.38782,0.43213,1.00808,2.74664,4.38882,0.05000,0.00000,-0.05000,0.00000,0.00000,0.00000,0.00338,-0.01182,-0.02222,0.00166,-0.01225,-0.00066
13.735,0.07855,-0.93479,0.87396,-1.63900,-1.59022,0.08012,0.03903,0.38779,0.43195,1.00809,2.74654,4.38800,0.05000,0.00000,0.00000,0.00000,0.00000,0.00000,0.02079,-0.00742,0.01738,0.00105,-0.00768,-0.00041
13.786,0.07900,-0.93497,0.87549,-1.63987,-1.59031,0.08060,0.03916,0.38774,0.43180,1.00809,2.74638,4.38729,0.05000,0.00000,0.00000,0.00000,0.00000,0.00000,0.02080,-0.00744,0.01736,0.00105,-0.00768,-0.00042
13.836,0.07951,-0.93558,0.87718,-1.64041,-1.59041,0.08113,0.03929,0.38761,0.43162,1.00809,2.74585,4.38634,0.05000,0.00000,0.00000,0.00000,0.00000,0.00000,0.02082,-0.00745,0.01734,0.00105,-0.00768,-0.00042
13.887,0.07991,-0.93644,0.87846,-1.64043,-1.59048,0.08154,0.03940,0.38744,0.43146,1.00809,2.74511,4.38545,0.05000,0.00000,0.00000,0.00000,0.00000,0.00000,0.02085,-0.00746,0.01734,0.00106,-0.00768,-0.00042
13.938,0.08035,-0.93789,0.87985,-1.63995,-1.59057,0.08199,0.03951,0.38717,0.43126,1.00809,2.74388,4.38428,0.05000,0.00000,0.00000,0.00000,0.00000,0.00000,0.02091,-0.00746,0.01734,0.00106,-0.00768,-0.00042
13.989,0.08070,-0.93934,0.88093,-1.63927,-1.59063,0.08235,0.03960,0.38689,0.43108,1.00809,2.74265,4.38324,0.05000,0.00000,0.00000,0.00000,0.00000,0.00000,0.02096,-0.00747,0.01735,0.00106,-0.00768,-0.00042
14.040,0.08105,-0.94079,0.88201,-1.63859,-1.59069,0.08272,0.03968,0.38662,0.43091,1.00810,2.74142,4.38219,0.05000,0.00000,0.00000,0.00000,0.00000,0.00000,0.02101,-0.00747,0.01736,0.00106,-0.00768,-0.00042
14.091,0.08140,-0.94224,0.88310,-1.63790,-1.59076,0.08308,0.03977,0.38634,0.43074,1.00810,2.74019,4.38114,0.05000,0.00000,0.00000,0.00000,0.00000,0.00000,0.02106,-0.00747,0.01737,0.00107,-0.00768,-0.00042
14.142,0.08176,-0.94369,0.88418,-1.63721,-1.59082,0.08344,0.03986,0.38606,0.43057,1.00810,2.73896,4.38009,0.05000,0.00000,0.00000,0.00000,0.00000,0.00000,0.02112,-0.00748,0.01738,0.00107,-0.00767,-0.00042
14.193,0.08218,-0.94544,0.88548,-1.63639,-1.59090,0.08388,0.03996,0.38573,0.43036,1.00810,2.73748,4.37883,0.05000,0.00000,0.00000,0.00000,0.00000,0.00000,0.02118,-0.00748,0.01739,0.00107,-0.00767,-0.00042
14.244,0.08260,-0.94719,0.88679,-1.63556,-1.59097,0.08432,0.04007,0.38539,0.43016,1.00810,2.73600,4.37757,0.05000,0.00000,0.00000,0.00000,0.00000,0.00000,0.02124,-0.00748,0.01740,0.00107,-0.00767,-0.00042
14.294,0.08296,-0.94866,0.88787,-1.63487,-1.59104,0.08469,0.04015,0.38510,0.42999,1.00810,2.73476,4.37651,0.05000,0.00000,0.00000,0.00000,0.00000,0.00000,0.02130,-0.00749,0.01741,0.00108,-0.00767,-0.00043
14.345,0.08339,-0.95041,0.88918,-1.63404,-1.59111,0.08513,0.04026,0.38476,0.42979,1.00810,2.73327,4.37524,0.05000,0.00000,0.00000,0.00000,0.00000,0.00000,0.02136,-0.00749,0.01742,0.00108,-0.00767,-0.00043
14.396,0.08381,-0.95217,0.89049,-1.63320,-1.59119,0.08557,0.04036,0.38441,0.42958,1.00811,2.73178,4.37397,0.05000,0.00000,0.00000,0.00000,0.00000,0.00000,0.02142,-0.00749,0.01743,0.00108,-0.00766,-0.00043
14.447,0.08417,-0.95364,0.89158,-1.63251,-1.59125,0.08594,0.04045,0.38412,0.42942,1.00811,2.73054,4.37291,0.05000,0.00000,0.00000,0.00000,0.00000,0.00000,0.02148,-0.00750,0.01744,0.00108,-0.00766,-0.00043
14.497,0.08453,-0.95511,0.89267,-1.63181,-1.59132,0.08631,0.04054,0.38383,0.42925,1.00811,2.72929,4.37185,0.05000,0.00000,0.00000,0.00000,0.00000,0.00000,0.02153,-0.00750,0.01744,0.00109,-0.00766,-0.00043
14.548,0.08489,-0.95658,0.89376,-1.63112,-1.59138,0.08668,0.04063,0.38354,0.42908,1.00811,2.72805,4.37079,0.05000,0.00000,0.00000,0.00000,0.00000,0.00000,0.02158,-0.00750,0.01745,0.00109,-0.00766,-0.00043
14.599,0.08532,-0.95835,0.89507,-1.63028,-1.59146,0.08713,0.04074,0.38318,0.42888,1.00811,2.72655,4.36951,0.05000,0.00000,0.00000,0.00000,0.00000,0.00000,0.02165,-0.00751,0.01746,0.00109,-0.00766,-0.00043
14.649,0.08568,-0.95983,0.89616,-1.62957,-1.59152,0.08751,0.04082,0.38288,0.42871,1.00811,2.72530,4.36844,0.05000,0.00000,0.00000,0.00000,0.00000,0.00000,0.02170,-0.00751,0.01747,0.00109,-0.00765,-0.00043
14.699,0.08605,-0.96130,0.89725,-1.62887,-1.59158,0.08788,0.04091,0.38258,0.42855,1.00811,2.72405,4.36738,0.05000,0.00000,0.00000,0.00000,0.00000,0.00000,0.02176,-0.00751,0.01748,0.00110,-0.00765,-0.00043
14.750,0.08648,-0.96308,0.89856,-1.62803,-1.59166,0.08833,0.04102,0.38222,0.42835,1.00812,2.72254,4.36609,0.05000,0.00000,0.00000,0.00000,0.00000,0.00000,0.02182,-0.00751,0.01749,0.00110,-0.00765,-0.00043
14.802,0.08685,-0.96456,0.89965,-1.62732,-1.59172,0.08871,0.04111,0.38192,0.42818,1.00812,2.72129,4.36502,0.05000,0.00000,0.00000,0.00000,0.00000,0.00000,0.02187,-0.00752,0.01750,0.00110,-0.00765,-0.00043
14.852,0.08721,-0.96605,0.90075,-1.62662,-1.59179,0.08908,0.04120,0.38161,0.42802,1.00812,2.72003,4.36395,0.05000,0.00000,0.00000,0.00000,0.00000,0.00000,0.02193,-0.00752,0.01751,0.00110,-0.00764,-0.00043
14.903,0.08765,-0.96783,0.90206,-1.62577,-1.59186,0.08954,0.04130,0.38124,0.42782,1.00812,2.71852,4.36266,0.05000,0.00000,0.00000,0.00000,0.00000,0.00000,0.02199,-0.00752,0.01751,0.00111,-0.00764,-0.00044
14.954,0.08809,-0.96962,0.90338,-1.62492,-1.59194,0.08999,0.04141,0.38087,0.42762,1.00812,2.71701,4.36137,0.05000,0.00000,0.00000,0.00000,0.00000,0.00000,0.02206,-0.00753,0.01752,0.00111,-0.00764,-0.00044
15.004,0.08853,-0.97140,0.90469,-1.62406,-1.59201,0.09045,0.04152,0.38050,0.42743,1.00812,2.71550,4.36007,0.05000,0.00000,0.00000,0.00000,0.00000,0.00000,0.02212,-0.00753,0.01753,0.00111,-0.00764,-0.00044
15.055,0.08890,-0.97290,0.90579,-1.62335,-1.59208,0.09083,0.04161,0.38019,0.42726,1.00812,2.71423,4.35900,0.05000,0.00000,0.00000,0.00000,0.00000,0.00000,0.02218,-0.00753,0.01754,0.00111,-0.00763,-0.00044
15.107,0.08927,-0.97439,0.90689,-1.62264,-1.59214,0.09121,0.04170,0.37987,0.42710,1.00813,2.71297,4.35791,0.05000,0.00000,0.00000,0.00000,0.00000,0.00000,0.02223,-0.00753,0.01755,0.00112,-0.00763,-0.00044
15.157,0.08971,-0.97619,0.90820,-1.62178,-1.59222,0.09167,0.04180,0.37949,0.42691,1.00813,2.71145,4.35662,0.05000,0.00000,0.00000,0.00000,0.00000,0.00000,0.02230,-0.00754,0.01756,0.00112,-0.00763,-0.00044
15.208,0.09008,-0.97769,0.90930,-1.62106,-1.59228,0.09206,0.04189,0.37917,0.42675,1.00813,2.71018,4.35553,0.05000,0.00000,0.00000,0.00000,0.00000,0.00000,0.02235,-0.00754,0.01756,0.00112,-0.00763,-0.00044
15.259,0.09046,-0.97919,0.91040,-1.62034,-1.59234,0.09244,0.04198,0.37885,0.42658,1.00813,2.70891,4.35445,0.05000,0.00000,0.00000,0.00000,0.00000,0.00000,0.02241,-0.00754,0.01757,0.00112,-0.00762,-0.00044
15.311,0.09083,-0.98069,0.91150,-1.61963,-1.59241,0.09283,0.04207,0.37853,0.42642,1.00813,2.70764,4.35336,0.05000,0.00000,0.00000,0.00000,0.00000,0.00000,0.02246,-0.00754,0.01758,0.00113,-0.00762,-0.00044
15.361,0.09128,-0.98249,0.91282,-1.61876,-1.59248,0.09329,0.04218,0.37814,0.42623,1.00813,2.70611,4.35205,0.05000,0.00000,0.00000,0.00000,0.00000,0.00000,0.02253,-0.00755,0.01759,0.00113,-0.00762,-0.00044
15.412,0.09165,-0.98400,0.91392,-1.61804,-1.59254,0.09368,0.04227,0.37781,0.42607,1.00813,2.70483,4.35096,0.05000,0.00000,0.00000,0.00000,0.00000,0.00000,0.02258,-0.00755,0.01759,0.00113,-0.00761,-0.00044
15.463,0.09211,-0.98581,0.91524,-1.61717,-1.59262,0.09415,0.04238,0.37742,0.42588,1.00814,2.70330,4.34965,0.05000,0.00000,0.00000,0.00000,0.00000,0.00000,0.02265,-0.00755,0.01760,0.00113,-0.00761,-0.00044
15.514,0.09241,-0.98702,0.91612,-1.61659,-1.59267,0.09446,0.04245,0.37716,0.42575,1.00814,2.70228,4.34878,0.05000,0.00000,0.00000,0.00000,0.00000,0.00000,0.02269,-0.00755,0.01761,0.00113,-0.00761,-0.00045
15.565,0.09286,-0.98884,0.91745,-1.61572,-1.59275,0.09493,0.04256,0.37676,0.42556,1.00814,2.70074,4.34746,0.05000,0.00000,0.00000,0.00000,0.00000,0.00000,0.02276,-0.00755,0.01762,0.00114,-0.00761,-0.00045
15.616,0.09324,-0.99035,0.91855,-1.61499,-1.59281,0.09532,0.04265,0.37642,0.42540,1.00814,2.69946,4.34637,0.05000,0.00000,0.00000,0.00000,0.00000,0.00000,0.02281,-0.00756,0.01762,0.00114,-0.00760,-0.00045
15.667,0.09370,-0.99217,0.91987,-1.61412,-1.59288,0.09579,0.04276,0.37602,0.42521,1.00814,2.69793,4.34505,0.05000,0.00000,0.00000,0.00000,0.00000,0.00000,0.02288,-0.00756,0.01763,0.00114,-0.00760,-0.00045
15.718,0.09408,-0.99369,0.92098,-1.61339,-1.59295,0.09619,0.04285,0.37568,0.42506,1.00814,2.69664,4.34395,0.05000,0.00000,0.00000,0.00000,0.00000,0.00000,0.02294,-0.00756,0.01764,0.00114,-0.00760,-0.00045
15.768,0.09453,-0.99551,0.92230,-1.61251,-1.59302,0.09666,0.04296,0.37528,0.42487,1.00814,2.69510,4.34263,0.05000,0.00000,0.00000,0.00000,0.00000,0.00000,0.02300,-0.00756,0.01765,0.00115,-0.00759,-0.00045
15.820,0.09492,-0.99704,0.92341,-1.61177,-1.59309,0.09706,0.04305,0.37494,0.42471,1.00815,2.69381,4.34153,0.05000,0.00000,0.00000,0.00000,0.00000,0.00000,0.02306,-0.00757,0.01765,0.00115,-0.00759,-0.00045
15.871,0.09530,-0.99856,0.92451,-1.61104,-1.59315,0.09746,0.04314,0.37459,0.42455,1.00815,2.69252,4.34042,0.05000,0.00000,0.00000,0.00000,0.00000,0.00000,0.02312,-0.00757,0.01766,0.00115,-0.00759,-0.00045
15.923,0.09569,-1.00009,0.92562,-1.61030,-1.59321,0.09786,0.04323,0.37425,0.42440,1.00815,2.69123,4.33932,0.05000,0.00000,0.00000,0.00000,0.00000,0.00000,0.02317,-0.00757,0.01766,0.00115,-0.00758,-0.00045
15.975,0.09607,-1.00162,0.92673,-1.60956,-1.59327,0.09825,0.04332,0.37390,0.42424,1.00815,2.68994,4.33821,0.05000,0.00000,0.00000,0.00000,0.00000,0.00000,0.02323,-0.00757,0.01767,0.00116,-0.00758,-0.00045
16.026,0.09654,-1.00346,0.92805,-1.60868,-1.59335,0.09874,0.04343,0.37348,0.42406,1.00815,2.68839,4.33688,0.05000,0.00000,0.00000,0.00000,0.00000,0.00000,0.02329,-0.00757,0.01768,0.00116,-0.00758,-0.00045
16.077,0.09700,-1.00530,0.92938,-1.60779,-1.59342,0.09922,0.04354,0.37306,0.42387,1.00815,2.68684,4.33555,0.05000,0.00000,0.00000,0.00000,0.00000,0.00000,0.02336,-0.00758,0.01768,0.00116,-0.00757,-0.00045
16.127,0.09747,-1.00714,0.93071,-1.60690,-1.59350,0.09970,0.04365,0.37264,0.42368,1.00815,2.68528,4.33421,0.05000,0.00000,0.00000,0.00000,0.00000,0.00000,0.02343,-0.00758,0.01769,0.00116,-0.00757,-0.00046
16.178,0.09786,-1.00868,0.93182,-1.60615,-1.59356,0.10010,0.04375,0.37228,0.42353,1.00816,2.68398,4.33310,0.05000,0.00000,0.00000,0.00000,0.00000,0.00000,0.02349,-0.00758,0.01770,0.00117,-0.00756,-0.00046
16.229,0.09833,-1.01052,0.93315,-1.60526,-1.59364,0.10059,0.04386,0.37186,0.42335,1.00816,2.68242,4.33176,0.05000,0.00000,0.00000,0.00000,0.00000,0.00000,0.02355,-0.00758,0.01770,0.00117,-0.00756,-0.00046
16.279,0.09880,-1.01237,0.93448,-1.60436,-1.59371,0.10108,0.04397,0.37143,0.42316,1.00816,2.68086,4.33042,0.05000,0.00000,0.00000,0.00000,0.00000,0.00000,0.02362,-0.00758,0.01771,0.00117,-0.00756,-0.00046
16.330,0.09919,-1.01392,0.93559,-1.60361,-1.59377,0.10148,0.04406,0.37107,0.42301,1.00816,2.67956,4.32930,0.05000,0.00000,0.00000,0.00000,0.00000,0.00000,0.02368,-0.00758,0.01771,0.00117,-0.00755,-0.00046
16.381,0.09966,-1.01577,0.93693,-1.60271,-1.59385,0.10197,0.04417,0.37063,0.42283,1.00816,2.67800,4.32796,0.05000,0.00000,0.00000,0.00000,0.00000,0.00000,0.02375,-0.00759,0.01772,0.00118,-0.00755,-0.00046
16.432,0.10006,-1.01732,0.93804,-1.60196,-1.59391,0.10238,0.04426,0.37027,0.42267,1.00816,2.67669,4.32684,0.05000,0.00000,0.00000,0.00000,0.00000,0.00000,0.02380,-0.00759,0.01773,0.00118,-0.00755,-0.00046
16.483,0.10053,-1.01918,0.93937,-1.60106,-1.59398,0.10288,0.04437,0.36983,0.42249,1.00816,2.67512,4.32549,0.05000,0.00000,0.00000,0.00000,0.00000,0.00000,0.02387,-0.00759,0.01773,0.00118,-0.00754,-0.00046
16.534,0.10101,-1.02104,0.94071,-1.60015,-1.59406,0.10337,0.04448,0.36939,0.42231,1.00817,2.67355,4.32414,0.05000,0.00000,0.00000,0.00000,0.00000,0.00000,0.02394,-0.00759,0.01774,0.00119,-0.00754,-0.00046
16.585,0.10149,-1.02291,0.94204,-1.59924,-1.59413,0.10387,0.04459,0.36894,0.42213,1.00817,2.67198,4.32279,0.05000,0.00000,0.00000,0.00000,0.00000,0.00000,0.02401,-0.00759,0.01774,0.00119,-0.00753,-0.00046
16.635,0.10189,-1.02447,0.94315,-1.59849,-1.59420,0.10428,0.04469,0.36857,0.42198,1.00817,2.67067,4.32166,0.05000,0.00000,0.00000,0.00000,0.00000,0.00000,0.02407,-0.00759,0.01775,0.00119,-0.00753,-0.00046
16.687,0.10229,-1.02603,0.94427,-1.59773,-1.59426,0.10470,0.04478,0.36819,0.42183,1.00817,2.66936,4.32053,0.05000,0.00000,0.00000,0.00000,0.00000,0.00000,0.02412,-0.00760,0.01775,0.00119,-0.00752,-0.00047
16.738,0.10277,-1.02790,0.94560,-1.59681,-1.59433,0.10519,0.04489,0.36774,0.42165,1.00817,2.66778,4.31917,0.05000,0.00000,0.00000,0.00000,0.00000,0.00000,0.02419,-0.00760,0.01776,0.00120,-0.00752,-0.00047
16.789,0.10318,-1.02946,0.94672,-1.59605,-1.59439,0.10561,0.04498,0.36737,0.42150,1.00817,2.66647,4.31804,0.05000,0.00000,0.00000,0.00000,0.00000,0.00000,0.02425,-0.00760,0.01776,0.00120,-0.00752,-0.00047
16.839,0.10366,-1.03134,0.94806,-1.59513,-1.59447,0.10611,0.04510,0.36691,0.42132,1.00817,2.66489,4.31668,0.05000,0.00000,0.00000,0.00000,0.00000,0.00000,0.02432,-0.00760,0.01777,0.00120,-0.00751,-0.00047
16.890,0.10407,-1.03291,0.94917,-1.59437,-1.59453,0.10653,0.04519,0.36653,0.42117,1.00818,2.66357,4.31555,0.05000,0.00000,0.00000,0.00000,0.00000,0.00000,0.02438,-0.00760,0.01777,0.00120,-0.00751,-0.00047
16.941,0.10447,-1.03448,0.95029,-1.59360,-1.59459,0.10696,0.04528,0.36614,0.42102,1.00818,2.66225,4.31441,0.05000,0.00000,0.00000,0.00000,0.00000,0.00000,0.02444,-0.00760,0.01778,0.00120,-0.00750,-0.00047
16.992,0.10488,-1.03605,0.95140,-1.59283,-1.59465,0.10738,0.04538,0.36576,0.42088,1.00818,2.66093,4.31327,0.05000,0.00000,0.00000,0.00000,0.00000,0.00000,0.02449,-0.00760,0.01778,0.00121,-0.00750,-0.00047
17.042,0.10521,-1.03731,0.95230,-1.59222,-1.59470,0.10772,0.04545,0.36545,0.42076,1.00818,2.65987,4.31236,0.05000,0.00000,0.00000,0.00000,0.00000,0.00000,0.02454,-0.00760,0.01778,0.00121,-0.00750,-0.00047
17.093,0.10561,-1.03888,0.95342,-1.59145,-1.59477,0.10814,0.04554,0.36506,0.42061,1.00818,2.65855,4.31122,0.05000,0.00000,-0.05000,0.00000,0.00000,0.00000,0.00681,-0.01293,-0.01976,0.00206,-0.01274,-0.00080
17.143,0.10603,-1.04036,0.95458,-1.59080,-1.59483,0.10858,0.04564,0.36470,0.42046,1.00818,2.65731,4.31010,0.05000,0.00000,-0.05000,0.00000,0.00000,0.00000,0.00686,-0.01295,-0.01973,0.00207,-0.01274,-0.00080
17.195,0.10649,-1.04153,0.95588,-1.59055,-1.59490,0.10905,0.04575,0.36442,0.42029,1.00818,2.65633,4.30905,0.05000,0.00000,-0.05000,0.00000,0.00000,0.00000,0.00691,-0.01296,-0.01972,0.00207,-0.01275,-0.00081
17.246,0.10698,-1.04240,0.95732,-1.59069,-1.59498,0.10956,0.04587,0.36421,0.42010,1.00818,2.65561,4.30807,0.05000,0.00000,-0.05000,0.00000,0.00000,0.00000,0.00695,-0.01298,-0.01973,0.00208,-0.01275,-0.00081
17.296,0.10750,-1.04296,0.95891,-1.59123,-1.59506,0.11010,0.04601,0.36409,0.41990,1.00819,2.65515,4.30715,0.05000,0.00000,-0.05000,0.00000,0.00000,0.00000,0.00699,-0.01300,-0.01976,0.00208,-0.01275,-0.00081
17.348,0.10805,-1.04328,0.96062,-1.59210,-1.59515,0.11068,0.04616,0.36404,0.41968,1.00819,2.65489,4.30629,0.05000,0.00000,-0.05000,0.00000,0.00000,0.00000,0.00703,-0.01302,-0.01980,0.00209,-0.01275,-0.00081
17.398,0.10860,-1.04358,0.96235,-1.59301,-1.59524,0.11126,0.04630,0.36398,0.41946,1.00819,2.65466,4.30542,0.05000,0.00000,-0.05000,0.00000,0.00000,0.00000,0.00706,-0.01304,-0.01985,0.00210,-0.01274,-0.00082
17.448,0.10927,-1.04394,0.96443,-1.59409,-1.59534,0.11196,0.04648,0.36392,0.41919,1.00819,2.65437,4.30438,0.05000,0.00000,-0.05000,0.00000,0.00000,0.00000,0.00710,-0.01307,-0.01990,0.00211,-0.01274,-0.00082
17.499,0.10982,-1.04423,0.96617,-1.59500,-1.59543,0.11254,0.04663,0.36386,0.41897,1.00819,2.65413,4.30351,0.05000,0.00000,-0.05000,0.00000,0.00000,0.00000,0.00714,-0.01309,-0.01995,0.00211,-0.01274,-0.00082
17.550,0.11038,-1.04453,0.96791,-1.59591,-1.59552,0.11312,0.04678,0.36381,0.41874,1.00820,2.65389,4.30264,0.05000,0.00000,-0.05000,0.00000,0.00000,0.00000,0.00717,-0.01311,-0.02000,0.00212,-0.01274,-0.00082
17.600,0.11094,-1.04483,0.96965,-1.59683,-1.59561,0.11371,0.04693,0.36375,0.41852,1.00820,2.65364,4.30176,0.05000,0.00000,-0.05000,0.00000,0.00000,0.00000,0.00720,-0.01313,-0.02005,0.00213,-0.01274,-0.00082
17.651,0.11161,-1.04518,0.97175,-1.59793,-1.59571,0.11442,0.04711,0.36369,0.41825,1.00820,2.65335,4.30071,0.05000,0.00000,-0.05000,0.00000,0.00000,0.00000,0.00725,-0.01315,-0.02010,0.00214,-0.01273,-0.00083
17.701,0.11206,-1.04542,0.97314,-1.59867,-1.59578,0.11489,0.04723,0.36364,0.41807,1.00820,2.65315,4.30001,0.05000,0.00000,-0.05000,0.00000,0.00000,0.00000,0.00727,-0.01317,-0.02014,0.00214,-0.01273,-0.00083
17.753,0.11274,-1.04577,0.97524,-1.59978,-1.59589,0.11560,0.04741,0.36357,0.41780,1.00820,2.65286,4.29896,0.05000,0.00000,-0.05000,0.00000,0.00000,0.00000,0.00732,-0.01320,-0.02020,0.00215,-0.01273,-0.00083
17.804,0.11319,-1.04600,0.97664,-1.60052,-1.59595,0.11607,0.04753,0.36352,0.41762,1.00820,2.65266,4.29826,0.05000,0.00000,-0.05000,0.00000,0.00000,0.00000,0.00734,-0.01321,-0.02024,0.00216,-0.01273,-0.00083
17.855,0.11375,-1.04630,0.97839,-1.60145,-1.59604,0.11666,0.04768,0.36346,0.41739,1.00821,2.65241,4.29738,0.05000,0.00000,-0.05000,0.00000,0.00000,0.00000,0.00738,-0.01323,-0.02029,0.00216,-0.01273,-0.00084
17.907,0.11443,-1.04665,0.98050,-1.60256,-1.59615,0.11738,0.04786,0.36339,0.41712,1.00821,2.65211,4.29632,0.05000,0.00000,-0.05000,0.00000,0.00000,0.00000,0.00742,-0.01326,-0.02034,0.00217,-0.01272,-0.00084
17.957,0.11500,-1.04694,0.98225,-1.60350,-1.59623,0.11797,0.04802,0.36333,0.41689,1.00821,2.65186,4.29544,0.05000,0.00000,-0.05000,0.00000,0.00000,0.00000,0.00746,-0.01328,-0.02039,0.00218,-0.01272,-0.00084
18.009,0.11557,-1.04723,0.98401,-1.60444,-1.59632,0.11857,0.04817,0.36326,0.41667,1.00821,2.65160,4.29455,0.05000,0.00000,-0.05000,0.00000,0.00000,0.00000,0.00749,-0.01330,-0.02044,0.00219,-0.01272,-0.00084
18.059,0.11626,-1.04758,0.98612,-1.60556,-1.59642,0.11929,0.04835,0.36319,0.41639,1.00821,2.65130,4.29349,0.05000,0.00000,-0.05000,0.00000,0.00000,0.00000,0.00754,-0.01332,-0.02050,0.00220,-0.01272,-0.00085
18.111,0.11694,-1.04792,0.98824,-1.60670,-1.59652,0.12001,0.04854,0.36311,0.41612,1.00821,2.65099,4.29243,0.05000,0.00000,-0.05000,0.00000,0.00000,0.00000,0.00758,-0.01335,-0.02056,0.00220,-0.01271,-0.00085
18.162,0.11740,-1.04815,0.98965,-1.60745,-1.59659,0.12049,0.04866,0.36306,0.41594,1.00822,2.65079,4.29172,0.05000,0.00000,-0.05000,0.00000,0.00000,0.00000,0.00761,-0.01337,-0.02060,0.00221,-0.01271,-0.00085
18.212,0.11809,-1.04850,0.99177,-1.60859,-1.59670,0.12121,0.04884,0.36298,0.41566,1.00822,2.65048,4.29065,0.05000,0.00000,-0.05000,0.00000,0.00000,0.00000,0.00765,-0.01339,-0.02065,0.00222,-0.01271,-0.00085
18.263,0.11866,-1.04878,0.99354,-1.60954,-1.59678,0.12182,0.04900,0.36291,0.41543,1.00822,2.65022,4.28976,0.05000,0.00000,-0.05000,0.00000,0.00000,0.00000,0.00769,-0.01341,-0.02070,0.00223,-0.01271,-0.00086
18.314,0.11912,-1.04901,0.99496,-1.61031,-1.59685,0.12230,0.04912,0.36286,0.41525,1.00822,2.65001,4.28904,0.05000,0.00000,-0.05000,0.00000,0.00000,0.00000,0.00772,-0.01343,-0.02074,0.00223,-0.01271,-0.00086
18.364,0.11959,-1.04924,0.99638,-1.61107,-1.59692,0.12279,0.04924,0.36280,0.41507,1.00822,2.64980,4.28833,0.05000,0.00000,-0.05000,0.00000,0.00000,0.00000,0.00775,-0.01345,-0.02078,0.00224,-0.01270,-0.00086
18.415,0.11993,-1.04941,0.99744,-1.61165,-1.59697,0.12315,0.04934,0.36276,0.41493,1.00822,2.64964,4.28779,0.05000,0.00000,-0.05000,0.00000,0.00000,0.00000,0.00777,-0.01346,-0.02081,0.00224,-0.01270,-0.00086
18.466,0.12063,-1.04975,0.99957,-1.61280,-1.59707,0.12388,0.04952,0.36268,0.41465,1.00823,2.64933,4.28672,0.05000,0.00000,-0.05000,0.00000,0.00000,0.00000,0.00781,-0.01348,-0.02087,0.00225,-0.01270,-0.00086
18.516,0.12121,-1.05003,1.00135,-1.61377,-1.59715,0.12449,0.04968,0.36260,0.41442,1.00823,2.64906,4.28582,0.05000,0.00000,-0.05000,0.00000,0.00000,0.00000,0.00785,-0.01350,-0.02092,0.00226,-0.01270,-0.00087
18.568,0.12179,-1.05032,1.00313,-1.61473,-1.59724,0.12510,0.04983,0.36253,0.41419,1.00823,2.64879,4.28492,0.05000,0.00000,-0.05000,0.00000,0.00000,0.00000,0.00788,-0.01352,-0.02097,0.00227,-0.01269,-0.00087
18.618,0.12226,-1.05054,1.00456,-1.61551,-1.59731,0.12559,0.04996,0.36247,0.41400,1.00823,2.64858,4.28420,0.05000,0.00000,-0.05000,0.00000,0.00000,0.00000,0.00791,-0.01354,-0.02101,0.00227,-0.01269,-0.00087
18.669,0.12284,-1.05082,1.00635,-1.61648,-1.59739,0.12621,0.05011,0.36240,0.41377,1.00823,2.64831,4.28330,0.05000,0.00000,-0.05000,0.00000,0.00000,0.00000,0.00795,-0.01356,-0.02106,0.00228,-0.01269,-0.00087
18.720,0.12343,-1.05110,1.00813,-1.61746,-1.59747,0.12682,0.05027,0.36233,0.41354,1.00823,2.64804,4.28239,0.05000,0.00000,-0.05000,0.00000,0.00000,0.00000,0.00799,-0.01358,-0.02111,0.00229,-0.01269,-0.00087
18.771,0.12401,-1.05138,1.00992,-1.61844,-1.59756,0.12744,0.05043,0.36225,0.41331,1.00823,2.64777,4.28149,0.05000,0.00000,-0.05000,0.00000,0.00000,0.00000,0.00803,-0.01360,-0.02116,0.00229,-0.01268,-0.00088
18.822,0.12460,-1.05166,1.01171,-1.61942,-1.59764,0.12806,0.05059,0.36217,0.41307,1.00824,2.64750,4.28058,0.05000,0.00000,-0.05000,0.00000,0.00000,0.00000,0.00806,-0.01362,-0.02121,0.00230,-0.01268,-0.00088
18.872,0.12531,-1.05199,1.01386,-1.62060,-1.59774,0.12880,0.05077,0.36208,0.41279,1.00824,2.64717,4.27950,0.05000,0.00000,-0.05000,0.00000,0.00000,0.00000,0.00811,-0.01365,-0.02127,0.00231,-0.01268,-0.00088
18.923,0.12590,-1.05227,1.01566,-1.62159,-1.59782,0.12942,0.05093,0.36200,0.41256,1.00824,2.64690,4.27859,0.05000,0.00000,-0.05000,0.00000,0.00000,0.00000,0.00815,-0.01367,-0.02132,0.00232,-0.01267,-0.00088
18.973,0.12661,-1.05260,1.01781,-1.62278,-1.59792,0.13017,0.05112,0.36190,0.41228,1.00824,2.64656,4.27750,0.05000,0.00000,-0.05000,0.00000,0.00000,0.00000,0.00819,-0.01369,-0.02138,0.00233,-0.01267,-0.00089
19.024,0.12708,-1.05282,1.01925,-1.62357,-1.59799,0.13067,0.05125,0.36184,0.41209,1.00824,2.64634,4.27677,0.05000,0.00000,-0.05000,0.00000,0.00000,0.00000,0.00822,-0.01371,-0.02142,0.00233,-0.01267,-0.00089
19.075,0.12768,-1.05309,1.02105,-1.62457,-1.59807,0.13129,0.05141,0.36176,0.41186,1.00824,2.64606,4.27586,0.05000,0.00000,-0.05000,0.00000,0.00000,0.00000,0.00826,-0.01373,-0.02147,0.00234,-0.01266,-0.00089
19.125,0.12839,-1.05342,1.02322,-1.62577,-1.59817,0.13205,0.05160,0.36166,0.41158,1.00825,2.64573,4.27476,0.05000,0.00000,-0.05000,0.00000,0.00000,0.00000,0.00831,-0.01376,-0.02153,0.00235,-0.01266,-0.00089
19.176,0.12899,-1.05369,1.02502,-1.62677,-1.59825,0.13267,0.05176,0.36158,0.41134,1.00825,2.64544,4.27384,0.05000,0.00000,-0.05000,0.00000,0.00000,0.00000,0.00835,-0.01378,-0.02158,0.00235,-0.01266,-0.00090
19.226,0.12959,-1.05396,1.02683,-1.62777,-1.59833,0.13330,0.05192,0.36149,0.41110,1.00825,2.64516,4.27293,0.05000,0.00000,-0.05000,0.00000,0.00000,0.00000,0.00838,-0.01380,-0.02163,0.00236,-0.01265,-0.00090
19.277,0.13019,-1.05423,1.02864,-1.62878,-1.59841,0.13394,0.05208,0.36140,0.41087,1.00825,2.64488,4.27201,0.05000,0.00000,-0.05000,0.00000,0.00000,0.00000,0.00842,-0.01382,-0.02168,0.00237,-0.01265,-0.00090
19.328,0.13079,-1.05450,1.03045,-1.62979,-1.59849,0.13457,0.05224,0.36132,0.41063,1.00825,2.64459,4.27109,0.05000,0.00000,-0.05000,0.00000,0.00000,0.00000,0.00846,-0.01384,-0.02173,0.00238,-0.01265,-0.00090
19.378,0.13139,-1.05477,1.03227,-1.63081,-1.59857,0.13520,0.05240,0.36123,0.41040,1.00825,2.64430,4.27017,0.05000,0.00000,-0.05000,0.00000,0.00000,0.00000,0.00850,-0.01386,-0.02178,0.00238,-0.01264,-0.00090
19.429,0.13199,-1.05503,1.03408,-1.63183,-1.59865,0.13584,0.05256,0.36114,0.41016,1.00826,2.64402,4.26925,0.05000,0.00000,-0.05000,0.00000,0.00000,0.00000,0.00854,-0.01388,-0.02183,0.00239,-0.01264,-0.00091
19.480,0.13260,-1.05530,1.03590,-1.63284,-1.59873,0.13647,0.05272,0.36105,0.40992,1.00826,2.64373,4.26832,0.05000,0.00000,-0.05000,0.00000,0.00000,0.00000,0.00858,-0.01390,-0.02188,0.00240,-0.01264,-0.00091
19.531,0.13333,-1.05562,1.03808,-1.63407,-1.59883,0.13724,0.05292,0.36094,0.40964,1.00826,2.64338,4.26722,0.05000,0.00000,-0.05000,0.00000,0.00000,0.00000,0.00863,-0.01393,-0.02194,0.00241,-0.01263,-0.00091
19.581,0.13393,-1.05588,1.03990,-1.63510,-1.59891,0.13788,0.05308,0.36085,0.40940,1.00826,2.64309,4.26629,0.05000,0.00000,-0.05000,0.00000,0.00000,0.00000,0.00867,-0.01395,-0.02199,0.00242,-0.01263,-0.00091
19.632,0.13454,-1.05614,1.04173,-1.63613,-1.59899,0.13852,0.05324,0.36075,0.40916,1.00826,2.64279,4.26536,0.05000,0.00000,-0.05000,0.00000,0.00000,0.00000,0.00870,-0.01397,-0.02204,0.00242,-0.01263,-0.00092
19.683,0.13515,-1.05640,1.04355,-1.63716,-1.59907,0.13916,0.05340,0.36066,0.40892,1.00826,2.64250,4.26443,0.05000,0.00000,-0.05000,0.00000,0.00000,0.00000,0.00874,-0.01399,-0.02209,0.00243,-0.01262,-0.00092
19.734,0.13576,-1.05666,1.04538,-1.63819,-1.59915,0.13981,0.05357,0.36056,0.40869,1.00827,2.64220,4.26351,0.05000,0.00000,-0.05000,0.00000,0.00000,0.00000,0.00878,-0.01401,-0.02215,0.00244,-0.01262,-0.00092
19.784,0.13637,-1.05692,1.04721,-1.63923,-1.59923,0.14045,0.05373,0.36047,0.40845,1.00827,2.64191,4.26258,0.05000,0.00000,-0.05000,0.00000,0.00000,0.00000,0.00882,-0.01403,-0.02220,0.00245,-0.01261,-0.00092
19.835,0.13699,-1.05718,1.04904,-1.64027,-1.59930,0.14110,0.05389,0.36037,0.40821,1.00827,2.64161,4.26164,0.05000,0.00000,-0.05000,0.00000,0.00000,0.00000,0.00886,-0.01405,-0.02225,0.00245,-0.01261,-0.00093
19.885,0.13773,-1.05749,1.05124,-1.64153,-1.59940,0.14188,0.05409,0.36025,0.40792,1.00827,2.64125,4.26052,0.05000,0.00000,-0.05000,0.00000,0.00000,0.00000,0.00891,-0.01408,-0.02231,0.00246,-0.01261,-0.00093
19.937,0.13834,-1.05775,1.05307,-1.64257,-1.59948,0.14253,0.05425,0.36015,0.40768,1.00827,2.64095,4.25959,0.05000,0.00000,-0.05000,0.00000,0.00000,0.00000,0.00895,-0.01410,-0.02236,0.00247,-0.01260,-0.00093
19.988,0.13908,-1.05805,1.05528,-1.64384,-1.59957,0.14331,0.05445,0.36003,0.40740,1.00827,2.64058,4.25847,0.05000,0.00000,-0.05000,0.00000,0.00000,0.00000,0.00900,-0.01412,-0.02242,0.00248,-0.01260,-0.00093
20.039,0.13958,-1.05826,1.05675,-1.64468,-1.59963,0.14383,0.05458,0.35994,0.40720,1.00828,2.64034,4.25771,0.05000,0.00000,-0.05000,0.00000,0.00000,0.00000,0.00903,-0.01414,-0.02247,0.00249,-0.01259,-0.00094
20.090,0.14032,-1.05856,1.05896,-1.64595,-1.59972,0.14462,0.05478,0.35982,0.40692,1.00828,2.63997,4.25659,0.05000,0.00000,-0.05000,0.00000,0.00000,0.00000,0.00908,-0.01416,-0.02253,0.00249,-0.01259,-0.00094
20.141,0.14095,-1.05881,1.06080,-1.64701,-1.59980,0.14527,0.05495,0.35971,0.40668,1.00828,2.63966,4.25565,0.05000,0.00000,-0.05000,0.00000,0.00000,0.00000,0.00912,-0.01418,-0.02258,0.00250,-0.01259,-0.00094
20.192,0.14157,-1.05906,1.06265,-1.64807,-1.59988,0.14593,0.05511,0.35961,0.40644,1.00828,2.63936,4.25471,0.05000,0.00000,-0.05000,0.00000,0.00000,0.00000,0.00917,-0.01420,-0.02263,0.00251,-0.01258,-0.00094
20.243,0.14219,-1.05931,1.06450,-1.64914,-1.59996,0.14659,0.05528,0.35950,0.40620,1.00828,2.63905,4.25377,0.05000,0.00000,-0.05000,0.00000,0.00000,0.00000,0.00921,-0.01422,-0.02268,0.00252,-0.01258,-0.00095
20.294,0.14282,-1.05956,1.06635,-1.65021,-1.60003,0.14725,0.05544,0.35939,0.40596,1.00828,2.63873,4.25282,0.05000,0.00000,-0.05000,0.00000,0.00000,0.00000,0.00925,-0.01424,-0.02274,0.00253,-0.01257,-0.00095
20.345,0.14345,-1.05981,1.06820,-1.65128,-1.60011,0.14791,0.05561,0.35928,0.40572,1.00828,2.63842,4.25188,0.05000,0.00000,-0.05000,0.00000,0.00000,0.00000,0.00929,-0.01426,-0.02279,0.00253,-0.01257,-0.00095
20.395,0.14408,-1.06005,1.07005,-1.65236,-1.60018,0.14857,0.05578,0.35917,0.40548,1.00829,2.63811,4.25093,0.05000,0.00000,-0.05000,0.00000,0.00000,0.00000,0.00933,-0.01428,-0.02284,0.00254,-0.01256,-0.00095
20.445,0.14471,-1.06030,1.07191,-1.65344,-1.60026,0.14924,0.05595,0.35906,0.40523,1.00829,2.63779,4.24998,0.05000,0.00000,-0.05000,0.00000,0.00000,0.00000,0.00937,-0.01431,-0.02289,0.00255,-0.01256,-0.00095
20.496,0.14521,-1.06049,1.07340,-1.65430,-1.60032,0.14977,0.05608,0.35897,0.40504,1.00829,2.63754,4.24922,0.05000,0.00000,-0.05000,0.00000,0.00000,0.00000,0.00941,-0.01432,-0.02294,0.00255,-0.01256,-0.00096
20.547,0.14585,-1.06074,1.07525,-1.65539,-1.60040,0.15044,0.05625,0.35885,0.40480,1.00829,2.63722,4.24827,0.05000,0.00000,-0.05000,0.00000,0.00000,0.00000,0.00945,-0.01434,-0.02299,0.00256,-0.01255,-0.00096
20.598,0.14635,-1.06093,1.07674,-1.65626,-1.60046,0.15097,0.05638,0.35876,0.40461,1.00829,2.63697,4.24751,0.05000,0.00000,-0.05000,0.00000,0.00000,0.00000,0.00948,-0.01436,-0.02303,0.00257,-0.01255,-0.00096
20.649,0.14699,-1.06117,1.07861,-1.65735,-1.60053,0.15164,0.05655,0.35864,0.40437,1.00829,2.63665,4.24656,0.05000,0.00000,-0.05000,0.00000,0.00000,0.00000,0.00952,-0.01438,-0.02308,0.00258,-0.01254,-0.00096
20.700,0.14762,-1.06141,1.08047,-1.65844,-1.60060,0.15231,0.05672,0.35852,0.40412,1.00829,2.63632,4.24561,0.05000,0.00000,-0.05000,0.00000,0.00000,0.00000,0.00957,-0.01440,-0.02314,0.00258,-0.01254,-0.00096
20.752,0.14826,-1.06165,1.08234,-1.65954,-1.60068,0.15299,0.05689,0.35840,0.40388,1.00830,2.63600,4.24465,0.05000,0.00000,-0.05000,0.00000,0.00000,0.00000,0.00961,-0.01442,-0.02319,0.00259,-0.01253,-0.00097
20.802,0.14890,-1.06188,1.08420,-1.66064,-1.60075,0.15366,0.05706,0.35828,0.40364,1.00830,2.63568,4.24370,0.05000,0.00000,-0.05000,0.00000,0.00000,0.00000,0.00965,-0.01444,-0.02324,0.00260,-0.01253,-0.00097
20.853,0.14967,-1.06217,1.08645,-1.66196,-1.60084,0.15447,0.05726,0.35814,0.40335,1.00830,2.63529,4.24255,0.05000,0.00000,-0.05000,0.00000,0.00000,0.00000,0.00970,-0.01446,-0.02330,0.00261,-0.01252,-0.00097
20.904,0.15018,-1.06235,1.08794,-1.66285,-1.60090,0.15502,0.05740,0.35804,0.40316,1.00830,2.63503,4.24179,0.05000,0.00000,-0.05000,0.00000,0.00000,0.00000,0.00974,-0.01448,-0.02335,0.00261,-0.01252,-0.00097
20.955,0.15095,-1.06263,1.09019,-1.66418,-1.60099,0.15583,0.05760,0.35789,0.40287,1.00830,2.63463,4.24064,0.05000,0.00000,-0.05000,0.00000,0.00000,0.00000,0.00979,-0.01451,-0.02341,0.00262,-0.01251,-0.00098
21.006,0.15147,-1.06282,1.09169,-1.66507,-1.60105,0.15637,0.05774,0.35779,0.40267,1.00830,2.63437,4.23987,0.05000,0.00000,-0.05000,0.00000,0.00000,0.00000,0.00982,-0.01452,-0.02345,0.00263,-0.01251,-0.00098
21.056,0.15211,-1.06305,1.09357,-1.66618,-1.60112,0.15706,0.05791,0.35766,0.40243,1.00830,2.63404,4.23891,0.05000,0.00000,-0.05000,0.00000,0.00000,0.00000,0.00987,-0.01454,-0.02351,0.00264,-0.01250,-0.00098
21.107,0.15289,-1.06332,1.09582,-1.66753,-1.60121,0.15788,0.05811,0.35750,0.40214,1.00831,2.63364,4.23775,0.05000,0.00000,-0.05000,0.00000,0.00000,0.00000,0.00992,-0.01457,-0.02357,0.00265,-0.01250,-0.00098
21.159,0.15354,-1.06355,1.09771,-1.66865,-1.60128,0.15856,0.05828,0.35737,0.40190,1.00831,2.63330,4.23679,0.05000,0.00000,-0.05000,0.00000,0.00000,0.00000,0.00996,-0.01459,-0.02363,0.00265,-0.01249,-0.00099
21.209,0.15432,-1.06382,1.09997,-1.67000,-1.60136,0.15939,0.05849,0.35721,0.40161,1.00831,2.63290,4.23563,0.05000,0.00000,-0.05000,0.00000,0.00000,0.00000,0.01001,-0.01461,-0.02369,0.00266,-0.01249,-0.00099
21.260,0.15497,-1.06405,1.10185,-1.67113,-1.60144,0.16007,0.05866,0.35708,0.40137,1.00831,2.63256,4.23467,0.05000,0.00000,-0.05000,0.00000,0.00000,0.00000,0.01006,-0.01463,-0.02374,0.00267,-0.01248,-0.00099
21.311,0.15563,-1.06427,1.10374,-1.67226,-1.60151,0.16076,0.05883,0.35695,0.40113,1.00831,2.63223,4.23370,0.05000,0.00000,-0.05000,0.00000,0.00000,0.00000,0.01010,-0.01465,-0.02380,0.00268,-0.01248,-0.00099
21.361,0.15641,-1.06454,1.10600,-1.67362,-1.60159,0.16159,0.05904,0.35678,0.40084,1.00831,2.63182,4.23254,0.05000,0.00000,-0.05000,0.00000,0.00000,0.00000,0.01016,-0.01468,-0.02386,0.00269,-0.01247,-0.00100
21.412,0.15694,-1.06471,1.10752,-1.67453,-1.60165,0.16215,0.05918,0.35667,0.40064,1.00831,2.63154,4.23176,0.05000,0.00000,-0.05000,0.00000,0.00000,0.00000,0.01019,-0.01469,-0.02390,0.00270,-0.01247,-0.00100
21.463,0.15759,-1.06493,1.10941,-1.67568,-1.60172,0.16284,0.05935,0.35653,0.40040,1.00832,2.63120,4.23079,0.05000,0.00000,-0.05000,0.00000,0.00000,0.00000,0.01024,-0.01471,-0.02396,0.00270,-0.01246,-0.00100
21.514,0.15825,-1.06515,1.11130,-1.67682,-1.60179,0.16354,0.05952,0.35639,0.40016,1.00832,2.63086,4.22982,0.05000,0.00000,-0.05000,0.00000,0.00000,0.00000,0.01028,-0.01473,-0.02401,0.00271,-0.01245,-0.00100
21.564,0.15891,-1.06537,1.11320,-1.67797,-1.60186,0.16424,0.05970,0.35625,0.39992,1.00832,2.63051,4.22885,0.05000,0.00000,-0.05000,0.00000,0.00000,0.00000,0.01032,-0.01475,-0.02407,0.00272,-0.01245,-0.00100
21.615,0.15971,-1.06562,1.11547,-1.67935,-1.60194,0.16508,0.05991,0.35608,0.39963,1.00832,2.63010,4.22768,0.05000,0.00000,-0.05000,0.00000,0.00000,0.00000,0.01038,-0.01478,-0.02413,0.00273,-0.01244,-0.00101
21.666,0.16037,-1.06584,1.11737,-1.68051,-1.60201,0.16578,0.06008,0.35593,0.39938,1.00832,2.62975,4.22671,0.05000,0.00000,-0.05000,0.00000,0.00000,0.00000,0.01042,-0.01480,-0.02419,0.00274,-0.01244,-0.00101
21.717,0.16103,-1.06605,1.11928,-1.68167,-1.60208,0.16648,0.06025,0.35579,0.39914,1.00832,2.62940,4.22573,0.05000,0.00000,-0.05000,0.00000,0.00000,0.00000,0.01047,-0.01482,-0.02424,0.00274,-0.01243,-0.00101
21.768,0.16170,-1.06626,1.12118,-1.68283,-1.60215,0.16718,0.06043,0.35564,0.39890,1.00832,2.62905,4.22475,0.05000,0.00000,-0.05000,0.00000,0.00000,0.00000,0.01051,-0.01484,-0.02430,0.00275,-0.01242,-0.00101
21.818,0.16224,-1.06643,1.12270,-1.68376,-1.60221,0.16775,0.06057,0.35552,0.39871,1.00833,2.62876,4.22397,0.05000,0.00000,-0.05000,0.00000,0.00000,0.00000,0.01055,-0.01485,-0.02434,0.00276,-0.01242,-0.00102
21.869,0.16290,-1.06663,1.12461,-1.68493,-1.60227,0.16846,0.06074,0.35537,0.39847,1.00833,2.62841,4.22299,0.05000,0.00000,-0.05000,0.00000,0.00000,0.00000,0.01060,-0.01487,-0.02439,0.00277,-0.01241,-0.00102
21.919,0.16371,-1.06688,1.12690,-1.68634,-1.60236,0.16931,0.06095,0.35519,0.39818,1.00833,2.62798,4.22182,0.05000,0.00000,-0.05000,0.00000,0.00000,0.00000,0.01065,-0.01490,-0.02446,0.00278,-0.01241,-0.00102
21.969,0.16438,-1.06709,1.12881,-1.68751,-1.60242,0.17002,0.06113,0.35503,0.39793,1.00833,2.62763,4.22083,0.05000,0.00000,-0.05000,0.00000,0.00000,0.00000,0.01070,-0.01492,-0.02451,0.00278,-0.01240,-0.00102
22.020,0.16505,-1.06729,1.13072,-1.68869,-1.60249,0.17073,0.06131,0.35488,0.39769,1.00833,2.62727,4.21985,0.05000,0.00000,-0.05000,0.00000,0.00000,0.00000,0.01074,-0.01494,-0.02457,0.00279,-0.01240,-0.00102
22.070,0.16559,-1.06745,1.13226,-1.68964,-1.60255,0.17130,0.06145,0.35475,0.39750,1.00833,2.62698,4.21907,0.05000,0.00000,-0.05000,0.00000,0.00000,0.00000,0.01078,-0.01495,-0.02461,0.00280,-0.01239,-0.00103
22.121,0.16627,-1.06765,1.13417,-1.69083,-1.60261,0.17201,0.06162,0.35459,0.39726,1.00833,2.62662,4.21808,0.05000,0.00000,-0.05000,0.00000,0.00000,0.00000,0.01083,-0.01497,-0.02467,0.00281,-0.01238,-0.00103
22.172,0.16708,-1.06789,1.13647,-1.69225,-1.60269,0.17287,0.06184,0.35440,0.39697,1.00834,2.62619,4.21690,0.05000,0.00000,-0.05000,0.00000,0.00000,0.00000,0.01088,-0.01500,-0.02473,0.00281,-0.01238,-0.00103
22.223,0.16776,-1.06809,1.13839,-1.69344,-1.60276,0.17359,0.06201,0.35424,0.39673,1.00834,2.62582,4.21591,0.05000,0.00000,-0.05000,0.00000,0.00000,0.00000,0.01093,-0.01502,-0.02479,0.00282,-0.01237,-0.00103
22.273,0.16844,-1.06828,1.14031,-1.69464,-1.60282,0.17431,0.06219,0.35408,0.39649,1.00834,2.62546,4.21493,0.05000,0.00000,-0.05000,0.00000,0.00000,0.00000,0.01097,-0.01503,-0.02484,0.00283,-0.01236,-0.00104
22.324,0.16912,-1.06848,1.14223,-1.69584,-1.60289,0.17503,0.06237,0.35391,0.39625,1.00834,2.62509,4.21394,0.05000,0.00000,-0.05000,0.00000,0.00000,0.00000,0.01102,-0.01505,-0.02490,0.00284,-0.01236,-0.00104
22.375,0.16981,-1.06867,1.14416,-1.69704,-1.60296,0.17576,0.06255,0.35375,0.39601,1.00834,2.62472,4.21295,0.05000,0.00000,-0.05000,0.00000,0.00000,0.00000,0.01107,-0.01507,-0.02496,0.00285,-0.01235,-0.00104
22.425,0.17063,-1.06890,1.14647,-1.69849,-1.60303,0.17663,0.06276,0.35354,0.39572,1.00834,2.62428,4.21176,0.05000,0.00000,-0.05000,0.00000,0.00000,0.00000,0.01112,-0.01510,-0.02502,0.00286,-0.01234,-0.00104
22.476,0.17132,-1.06908,1.14840,-1.69970,-1.60310,0.17735,0.06294,0.35337,0.39548,1.00834,2.62391,4.21077,0.05000,0.00000,-0.05000,0.00000,0.00000,0.00000,0.01117,-0.01512,-0.02508,0.00286,-0.01234,-0.00104
22.528,0.17187,-1.06923,1.14994,-1.70067,-1.60315,0.17794,0.06308,0.35324,0.39529,1.00834,2.62361,4.20998,0.05000,0.00000,-0.05000,0.00000,0.00000,0.00000,0.01121,-0.01513,-0.02512,0.00287,-0.01233,-0.00105
22.578,0.17256,-1.06942,1.15187,-1.70189,-1.60321,0.17866,0.06326,0.35306,0.39505,1.00835,2.62323,4.20898,0.05000,0.00000,-0.05000,0.00000,0.00000,0.00000,0.01126,-0.01515,-0.02518,0.00288,-0.01232,-0.00105
22.629,0.17325,-1.06960,1.15381,-1.70311,-1.60328,0.17940,0.06344,0.35289,0.39481,1.00835,2.62286,4.20799,0.05000,0.00000,0.00000,0.00000,0.00000,0.00000,0.02641,-0.00925,0.01510,0.00176,-0.00751,-0.00064
22.679,0.17393,-1.06989,1.15569,-1.70419,-1.60334,0.18012,0.06361,0.35270,0.39457,1.00835,2.62241,4.20698,0.05000,0.00000,0.00000,0.00000,0.00000,0.00000,0.02643,-0.00927,0.01508,0.00177,-0.00751,-0.00064
22.731,0.17471,-1.07066,1.15777,-1.70494,-1.60341,0.18094,0.06380,0.35242,0.39427,1.00835,2.62161,4.20569,0.05000,0.00000,0.00000,0.00000,0.00000,0.00000,0.02647,-0.00928,0.01505,0.00177,-0.00751,-0.00064
22.782,0.17533,-1.07167,1.15935,-1.70510,-1.60346,0.18159,0.06395,0.35214,0.39402,1.00835,2.62071,4.20454,0.05000,0.00000,0.00000,0.00000,0.00000,0.00000,0.02651,-0.00929,0.01504,0.00177,-0.00750,-0.00065
22.832,0.17592,-1.07301,1.16079,-1.70483,-1.60351,0.18220,0.06408,0.35181,0.39377,1.00835,2.61960,4.20333,0.05000,0.00000,0.00000,0.00000,0.00000,0.00000,0.02656,-0.00929,0.01504,0.00178,-0.00750,-0.00065
22.883,0.17637,-1.07429,1.16186,-1.70436,-1.60354,0.18268,0.06418,0.35153,0.39356,1.00835,2.61858,4.20232,0.05000,0.00000,0.00000,0.00000,0.00000,0.00000,0.02661,-0.00929,0.01504,0.00178,-0.00749,-0.00065
22.934,0.17694,-1.07592,1.16320,-1.70374,-1.60359,0.18327,0.06430,0.35116,0.39330,1.00835,2.61728,4.20106,0.05000,0.00000,0.00000,0.00000,0.00000,0.00000,0.02667,-0.00929,0.01504,0.00178,-0.00749,-0.00065
22.985,0.17762,-1.07787,1.16480,-1.70299,-1.60364,0.18398,0.06445,0.35072,0.39298,1.00835,2.61573,4.19953,0.05000,0.00000,0.00000,0.00000,0.00000,0.00000,0.02674,-0.00929,0.01505,0.00179,-0.00748,-0.00065
23.036,0.17819,-1.07951,1.16614,-1.70237,-1.60369,0.18458,0.06457,0.35035,0.39272,1.00836,2.61444,4.19826,0.05000,0.00000,0.00000,0.00000,0.00000,0.00000,0.02681,-0.00929,0.01505,0.00179,-0.00747,-0.00065
23.087,0.17876,-1.08114,1.16748,-1.70175,-1.60373,0.18518,0.06469,0.34998,0.39246,1.00836,2.61314,4.19699,0.05000,0.00000,0.00000,0.00000,0.00000,0.00000,0.02687,-0.00929,0.01505,0.00179,-0.00746,-0.00065
23.137,0.17934,-1.08278,1.16881,-1.70112,-1.60377,0.18577,0.06481,0.34961,0.39220,1.00836,2.61184,4.19571,0.05000,0.00000,0.00000,0.00000,0.00000,0.00000,0.02693,-0.00929,0.01505,0.00180,-0.00746,-0.00065
23.188,0.18003,-1.08475,1.17042,-1.70037,-1.60383,0.18649,0.06496,0.34916,0.39189,1.00836,2.61028,4.19418,0.05000,0.00000,0.00000,0.00000,0.00000,0.00000,0.02700,-0.00929,0.01505,0.00180,-0.00745,-0.00065
23.238,0.18049,-1.08606,1.17149,-1.69987,-1.60386,0.18698,0.06505,0.34886,0.39168,1.00836,2.60924,4.19316,0.05000,0.00000,0.00000,0.00000,0.00000,0.00000,0.02705,-0.00929,0.01505,0.00180,-0.00744,-0.00065
23.289,0.18107,-1.08770,1.17283,-1.69924,-1.60391,0.18758,0.06518,0.34848,0.39142,1.00836,2.60794,4.19189,0.05000,0.00000,0.00000,0.00000,0.00000,0.00000,0.02711,-0.00929,0.01505,0.00181,-0.00744,-0.00065
23.340,0.18176,-1.08968,1.17444,-1.69848,-1.60396,0.18831,0.06532,0.34803,0.39111,1.00836,2.60638,4.19035,0.05000,0.00000,0.00000,0.00000,0.00000,0.00000,0.02718,-0.00929,0.01506,0.00181,-0.00743,-0.00065
23.391,0.18235,-1.09132,1.17578,-1.69785,-1.60400,0.18891,0.06544,0.34764,0.39085,1.00836,2.60508,4.18907,0.05000,0.00000,0.00000,0.00000,0.00000,0.00000,0.02725,-0.00929,0.01506,0.00181,-0.00742,-0.00066
23.441,0.18305,-1.09330,1.17739,-1.69709,-1.60405,0.18965,0.06559,0.34718,0.39054,1.00836,2.60352,4.18754,0.05000,0.00000,0.00000,0.00000,0.00000,0.00000,0.02732,-0.00929,0.01506,0.00182,-0.00741,-0.00066
23.493,0.18363,-1.09496,1.17873,-1.69645,-1.60409,0.19026,0.06571,0.34680,0.39029,1.00836,2.60221,4.18626,0.05000,0.00000,0.00000,0.00000,0.00000,0.00000,0.02738,-0.00929,0.01506,0.00182,-0.00741,-0.00066
23.544,0.18422,-1.09661,1.18007,-1.69582,-1.60414,0.19087,0.06583,0.34641,0.39003,1.00836,2.60091,4.18497,0.05000,0.00000,0.00000,0.00000,0.00000,0.00000,0.02744,-0.00928,0.01506,0.00182,-0.00740,-0.00066
23.596,0.18481,-1.09827,1.18142,-1.69518,-1.60418,0.19148,0.06596,0.34602,0.38977,1.00837,2.59961,4.18369,0.05000,0.00000,0.00000,0.00000,0.00000,0.00000,0.02751,-0.00928,0.01506,0.00182,-0.00739,-0.00066
23.646,0.18540,-1.09993,1.18276,-1.69454,-1.60422,0.19210,0.06608,0.34563,0.38952,1.00837,2.59830,4.18240,0.05000,0.00000,0.00000,0.00000,0.00000,0.00000,0.02757,-0.00928,0.01506,0.00183,-0.00739,-0.00066
23.698,0.18599,-1.10159,1.18410,-1.69390,-1.60427,0.19272,0.06620,0.34524,0.38926,1.00837,2.59699,4.18112,0.05000,0.00000,0.00000,0.00000,0.00000,0.00000,0.02763,-0.00928,0.01506,0.00183,-0.00738,-0.00066
23.749,0.18670,-1.10358,1.18572,-1.69312,-1.60432,0.19346,0.06635,0.34477,0.38895,1.00837,2.59542,4.17957,0.05000,0.00000,0.00000,0.00000,0.00000,0.00000,0.02770,-0.00928,0.01506,0.00183,-0.00737,-0.00066
23.800,0.18718,-1.10491,1.18679,-1.69261,-1.60435,0.19396,0.06645,0.34445,0.38875,1.00837,2.59438,4.17854,0.05000,0.00000,0.00000,0.00000,0.00000,0.00000,0.02775,-0.00928,0.01506,0.00184,-0.00736,-0.00066
23.851,0.18766,-1.10625,1.18787,-1.69209,-1.60438,0.19445,0.06655,0.34413,0.38854,1.00837,2.59333,4.17751,0.05000,0.00000,0.00000,0.00000,0.00000,0.00000,0.02780,-0.00928,0.01506,0.00184,-0.00736,-0.00066
23.901,0.18826,-1.10792,1.18921,-1.69144,-1.60443,0.19508,0.06667,0.34373,0.38829,1.00837,2.59202,4.17622,0.05000,0.00000,0.00000,0.00000,0.00000,0.00000,0.02787,-0.00928,0.01506,0.00184,-0.00735,-0.00066
23.952,0.18897,-1.10992,1.19083,-1.69067,-1.60448,0.19583,0.06682,0.34325,0.38798,1.00837,2.59045,4.17467,0.05000,0.00000,0.00000,0.00000,0.00000,0.00000,0.02794,-0.00928,0.01506,0.00184,-0.00734,-0.00066
24.002,0.18958,-1.11159,1.19217,-1.69002,-1.60452,0.19646,0.06694,0.34285,0.38773,1.00837,2.58914,4.17338,0.05000,0.00000,0.00000,0.00000,0.00000,0.00000,0.02800,-0.00928,0.01506,0.00185,-0.00733,-0.00067
24.053,0.19030,-1.11360,1.19379,-1.68923,-1.60457,0.19721,0.06709,0.34236,0.38742,1.00837,2.58756,4.17183,0.05000,0.00000,0.00000,0.00000,0.00000,0.00000,0.02808,-0.00927,0.01506,0.00185,-0.00733,-0.00067
24.104,0.19091,-1.11528,1.19513,-1.68858,-1.60461,0.19784,0.06721,0.34195,0.38717,1.00837,2.58625,4.17053,0.05000,0.00000,0.00000,0.00000,0.00000,0.00000,0.02814,-0.00927,0.01506,0.00185,-0.00732,-0.00067
24.155,0.19151,-1.11696,1.19648,-1.68792,-1.60465,0.19848,0.06733,0.34154,0.38691,1.00838,2.58494,4.16924,0.05000,0.00000,0.00000,0.00000,0.00000,0.00000,0.02820,-0.00927,0.01506,0.00186,-0.00731,-0.00067
24.206,0.19224,-1.11897,1.19809,-1.68714,-1.60470,0.19924,0.06748,0.34105,0.38661,1.00838,2.58336,4.16768,0.05000,0.00000,0.00000,0.00000,0.00000,0.00000,0.02828,-0.00927,0.01506,0.00186,-0.00730,-0.00067
24.256,0.19285,-1.12066,1.19944,-1.68648,-1.60474,0.19987,0.06760,0.34064,0.38636,1.00838,2.58205,4.16639,0.05000,0.00000,0.00000,0.00000,0.00000,0.00000,0.02834,-0.00927,0.01506,0.00186,-0.00729,-0.00067
24.306,0.19347,-1.12234,1.20079,-1.68582,-1.60478,0.20051,0.06773,0.34022,0.38610,1.00838,2.58073,4.16509,0.05000,0.00000,0.00000,0.00000,0.00000,0.00000,0.02840,-0.00927,0.01506,0.00187,-0.00728,-0.00067
24.358,0.19420,-1.12437,1.20241,-1.68502,-1.60483,0.20128,0.06787,0.33972,0.38580,1.00838,2.57915,4.16353,0.05000,0.00000,0.00000,0.00000,0.00000,0.00000,0.02848,-0.00927,0.01506,0.00187,-0.00728,-0.00067
24.408,0.19482,-1.12606,1.20376,-1.68436,-1.60487,0.20192,0.06800,0.33930,0.38555,1.00838,2.57784,4.16223,0.05000,0.00000,0.00000,0.00000,0.00000,0.00000,0.02854,-0.00926,0.01506,0.00187,-0.00727,-0.00067
24.459,0.19556,-1.12809,1.20537,-1.68356,-1.60492,0.20270,0.06814,0.33880,0.38525,1.00838,2.57626,4.16067,0.05000,0.00000,0.00000,0.00000,0.00000,0.00000,0.02862,-0.00926,0.01505,0.00188,-0.00726,-0.00067
24.509,0.19618,-1.12978,1.20672,-1.68289,-1.60496,0.20334,0.06827,0.33838,0.38500,1.00838,2.57494,4.15936,0.05000,0.00000,0.00000,0.00000,0.00000,0.00000,0.02868,-0.00926,0.01505,0.00188,-0.00725,-0.00067
24.561,0.19693,-1.13182,1.20834,-1.68209,-1.60500,0.20412,0.06842,0.33787,0.38469,1.00838,2.57336,4.15780,0.05000,0.00000,0.00000,0.00000,0.00000,0.00000,0.02876,-0.00926,0.01505,0.00188,-0.00724,-0.00068
